ncols        215
nrows        187
xllcorner    745387.50
yllcorner    6612762.50
cellsize     25.00
NODATA_value -9999
 237 237 237 236 236 235 234 233 232 231 230 230 229 228 227 226 225 224 223 223 222 222 222 222 223 223 224 225 226 227 228 228 229 230 230 230 231 230 230 229 228 227 226 225 224 223 222 221 220 219 219 219 219 222 225 227 229 230 230 230 230 230 230 229 228 228 227 227 227 227 227 227 227 227 227 227 227 227 227 227 227 226 226 226 225 224 224 223 222 221 221 221 221 222 222 223 224 224 224 224 224 224 224 224 224 223 223 223 223 223 223 223 223 224 224 224 224 224 224 224 223 223 223 223 223 223 223 223 223 223 223 223 224 224 224 223 223 223 222 221 220 218 215 212 209 208 208 208 208 208 207 207 207 207 208 208 209 209 209 209 209 209 209 208 208 208 208 208 208 208 208 208 207 207 207 207 207 207 207 207 207 207 207 207 207 207 207 207 207 207 207 207 207 207 207 207 207 207 207 207 207 207 207 207 207 207 207 207 207 207 207 207 207 207 207
 237 237 237 236 236 235 234 233 232 231 231 230 229 228 227 226 225 224 223 222 222 222 222 223 223 224 225 226 227 228 228 229 230 230 231 231 231 231 230 229 228 227 227 226 225 224 223 222 221 220 218 218 219 221 224 227 229 230 230 230 230 230 230 229 229 228 228 227 227 227 227 227 227 227 227 227 227 227 227 227 227 227 226 226 226 225 224 223 222 222 221 221 222 222 223 223 224 224 224 225 225 224 224 224 224 224 224 224 224 224 224 224 224 224 224 224 224 224 224 224 224 223 223 223 223 223 223 223 223 223 223 224 224 224 223 223 223 222 221 220 218 217 214 212 210 209 208 208 208 208 207 207 207 207 208 208 209 209 209 209 209 209 209 209 208 208 208 208 208 208 208 208 208 207 207 207 207 207 207 207 207 207 207 207 207 207 207 207 207 207 207 207 207 207 207 207 207 207 207 207 207 207 207 207 207 207 207 207 207 207 207 207 207 207 207
 237 237 237 236 236 235 234 233 232 232 231 231 230 229 228 226 225 224 223 223 222 222 223 224 225 226 226 227 228 228 229 230 231 231 232 232 232 231 230 230 229 228 227 226 225 224 224 223 221 220 218 218 219 221 223 226 228 230 230 230 230 230 230 229 229 228 228 228 227 227 227 227 227 227 227 227 227 227 227 227 227 227 227 226 226 226 225 224 223 223 222 222 222 223 223 224 225 225 225 225 225 225 224 224 224 224 224 224 224 224 224 224 224 224 224 224 224 224 224 224 224 223 223 223 223 223 223 223 223 223 223 224 224 223 223 223 223 222 220 219 217 215 214 212 211 210 209 208 208 208 207 207 207 207 208 208 209 209 209 209 209 209 209 209 209 208 208 208 208 208 208 208 208 208 207 207 207 207 207 207 207 207 207 207 207 207 207 207 207 207 207 207 207 207 207 207 207 207 207 207 207 207 207 207 207 207 207 207 207 207 207 207 207 207 207
 237 237 236 236 236 235 234 233 232 232 231 231 230 229 228 226 225 224 223 223 223 223 224 225 226 227 228 228 229 229 230 231 232 232 233 233 232 232 231 230 229 228 227 227 226 225 224 223 222 220 218 218 219 220 223 226 228 229 230 230 230 230 230 229 229 229 228 228 228 227 227 227 227 227 227 228 228 228 228 227 227 227 227 227 226 226 226 225 224 223 223 223 223 223 224 225 225 225 225 225 225 225 225 225 224 224 224 224 224 224 224 224 224 224 224 224 224 224 224 224 224 224 224 223 223 223 223 223 223 223 224 224 224 223 223 223 222 221 220 218 216 215 215 214 213 211 209 209 208 208 208 207 207 207 208 208 208 209 209 209 209 209 209 209 209 209 208 208 208 208 208 208 208 208 207 207 207 207 207 207 207 207 207 207 207 207 207 207 207 207 207 207 207 207 207 207 207 207 207 207 208 207 207 207 207 207 207 207 207 207 207 207 207 207 207
 237 236 236 236 235 235 234 233 232 231 231 230 229 228 227 226 225 224 223 223 223 224 226 227 228 229 229 230 230 230 231 232 233 233 233 233 233 232 231 230 229 229 228 227 226 225 224 223 222 220 218 218 219 220 223 226 228 229 230 230 230 230 230 230 229 229 228 228 228 228 228 228 227 228 228 228 228 228 228 228 227 227 227 227 227 226 226 225 224 224 223 223 223 224 225 225 226 226 226 226 226 225 225 225 225 225 224 224 224 224 224 224 224 224 224 224 224 224 224 224 224 224 224 224 224 224 223 223 223 223 224 224 223 223 223 222 222 221 219 218 217 217 217 216 215 213 211 209 208 208 208 207 207 207 207 208 208 208 209 209 209 209 209 209 209 209 209 208 208 208 208 208 208 208 208 207 207 207 207 207 207 207 207 207 207 207 207 207 207 207 207 207 207 207 207 207 207 207 207 208 208 208 207 207 207 207 207 207 207 207 207 207 207 207 207
 236 236 236 235 235 234 233 232 231 231 230 229 229 228 227 226 225 224 224 224 225 226 227 229 230 231 231 231 232 232 233 234 234 234 234 233 233 232 231 230 230 229 228 227 226 225 224 223 222 220 218 218 219 220 223 226 228 229 230 230 231 230 230 229 229 229 228 228 228 228 228 228 228 228 228 228 228 228 228 228 228 227 227 227 227 226 226 225 225 224 224 224 224 225 225 226 226 227 227 226 226 226 226 225 225 225 225 224 224 224 224 224 224 224 224 224 224 224 224 224 224 224 224 224 224 224 224 224 224 224 224 223 223 223 223 222 221 221 220 219 219 219 219 218 217 215 212 211 209 208 208 207 207 207 207 208 208 208 209 209 209 209 209 209 209 209 209 208 208 208 208 208 208 208 208 208 207 207 207 207 207 207 207 207 207 207 207 207 207 207 207 207 207 207 207 207 207 207 207 208 208 208 208 208 207 207 207 207 207 207 207 207 207 207 207
 235 235 235 235 234 234 233 232 231 230 229 229 228 227 226 225 224 224 224 225 226 228 229 231 231 232 232 233 233 234 235 235 235 235 235 234 233 232 231 231 230 229 228 227 226 225 224 223 221 219 218 218 219 220 223 225 227 229 230 231 231 230 230 229 229 229 228 228 228 228 228 228 228 228 228 228 228 228 228 228 228 228 227 227 227 226 226 225 225 224 224 224 225 225 226 227 227 227 227 227 227 226 226 226 226 225 225 225 224 224 224 224 224 224 224 224 224 224 224 224 224 224 224 224 224 224 224 224 224 224 223 223 223 223 223 222 222 221 220 220 221 221 220 220 219 217 214 212 210 209 208 208 207 207 207 207 208 208 208 209 209 209 209 209 209 209 209 209 208 208 208 208 208 208 208 208 208 207 207 207 207 207 207 207 207 207 207 207 207 207 207 207 207 207 207 207 207 207 207 208 208 208 208 208 208 207 207 207 207 207 207 207 207 207 207
 233 233 233 233 233 232 231 231 230 229 228 228 227 226 225 225 224 224 225 226 228 229 231 232 233 233 234 234 235 236 236 237 236 236 235 235 234 233 232 231 230 229 228 227 226 225 224 222 221 219 218 218 219 220 223 225 227 229 231 232 231 231 230 229 229 229 229 228 228 228 228 228 228 228 228 228 228 228 228 228 228 228 227 227 227 226 225 225 225 224 224 225 225 226 227 228 228 228 228 228 227 227 227 226 226 226 225 225 225 224 224 224 224 224 224 224 224 224 224 224 224 224 224 224 224 224 224 224 224 224 223 223 223 223 223 222 222 221 221 222 222 222 222 221 220 218 216 214 212 210 209 208 208 208 208 207 208 208 208 209 209 209 209 209 209 209 209 209 209 208 208 208 208 208 208 208 208 207 207 207 207 207 207 207 207 207 207 207 207 207 207 207 207 207 207 207 207 207 207 207 208 208 208 208 208 208 207 207 207 207 207 207 207 207 207
 230 231 231 232 231 231 230 229 229 228 227 227 226 225 225 224 224 225 226 228 230 231 232 233 234 234 235 236 236 237 237 237 237 237 236 235 234 233 232 231 230 229 228 227 226 225 223 222 220 219 219 219 219 221 223 226 228 230 232 232 232 231 230 230 229 229 229 229 228 228 228 228 228 228 228 228 228 228 228 228 228 228 227 227 227 226 225 225 225 225 225 225 226 227 228 229 229 229 229 229 228 228 228 227 227 226 226 225 225 224 224 224 224 223 223 223 224 224 224 224 224 224 224 224 224 224 224 224 224 224 223 223 223 223 223 222 222 222 222 222 223 223 223 222 221 220 218 216 213 211 210 208 208 208 208 208 207 208 208 209 209 209 209 209 209 209 209 209 209 208 208 208 208 208 208 208 208 208 207 207 207 207 207 207 207 207 207 207 207 207 207 207 207 207 207 207 207 207 207 207 208 208 208 208 208 208 208 207 207 207 207 207 207 207 207
 228 228 229 229 229 229 228 228 227 227 226 225 225 225 224 225 225 226 227 229 231 233 234 234 235 235 236 237 237 238 238 238 237 237 236 235 234 233 232 231 230 228 227 226 225 224 223 222 220 219 219 219 219 221 224 226 229 231 232 233 232 231 230 230 229 229 229 229 229 228 228 228 228 228 228 228 228 228 228 228 228 228 228 227 227 226 225 225 225 225 225 226 228 229 229 230 230 230 229 229 229 229 229 228 228 227 226 226 225 224 224 224 224 223 223 223 224 224 224 224 224 224 224 224 224 224 224 224 224 224 223 223 223 223 223 223 223 223 223 223 223 223 223 223 222 221 219 217 215 212 210 209 208 208 208 208 207 208 208 208 209 209 209 209 209 209 209 209 209 209 208 209 208 208 208 208 208 208 208 207 207 207 207 207 207 207 207 207 207 207 207 207 207 207 207 207 207 207 207 207 207 208 208 208 208 207 207 207 207 207 207 207 207 207 207
 225 225 226 226 226 226 226 226 225 225 225 224 224 224 225 225 226 227 229 231 232 234 235 235 236 236 237 237 238 238 238 238 238 237 236 236 235 234 232 231 229 228 227 226 225 224 223 222 221 219 219 219 220 222 225 227 229 231 233 233 232 232 231 230 230 229 229 229 229 228 228 228 228 228 228 228 228 228 228 228 228 228 228 227 227 226 225 225 225 225 226 228 229 230 230 230 230 230 230 230 230 229 229 229 229 228 227 226 225 224 224 224 224 223 223 223 224 224 224 224 224 224 224 224 224 224 224 224 224 224 223 223 223 223 223 223 223 223 224 224 224 223 223 223 222 221 220 218 216 213 211 209 208 208 208 208 208 208 208 208 209 209 209 209 209 209 209 209 209 209 209 209 208 208 208 208 208 208 208 208 208 207 207 207 207 207 207 207 207 207 207 207 207 207 207 207 207 207 207 207 207 207 207 207 207 207 207 207 207 207 207 207 207 207 207
 224 224 225 225 225 225 225 225 225 225 224 224 224 225 226 227 228 230 231 232 234 235 236 236 237 237 238 238 238 238 238 238 238 237 236 236 235 234 232 231 229 228 227 226 225 225 224 223 222 220 219 219 220 223 225 228 230 232 233 233 233 232 231 230 230 230 229 229 229 229 228 228 228 228 228 228 228 228 228 228 228 228 228 227 227 226 225 225 225 226 228 229 230 231 231 231 231 231 231 230 230 230 230 230 229 229 228 226 225 225 224 224 224 224 223 223 224 224 224 224 224 224 224 224 224 224 224 224 224 224 224 223 223 223 223 223 224 224 224 224 224 223 223 223 223 222 221 219 217 214 212 209 208 208 208 208 208 208 208 208 209 209 209 209 210 210 209 209 209 209 209 209 209 208 208 208 208 208 208 208 208 208 208 207 207 207 207 207 207 207 207 207 207 207 207 207 207 207 207 207 207 207 207 207 207 207 207 207 207 207 207 207 207 207 207
 224 224 225 225 225 225 225 225 225 225 225 225 225 226 227 229 230 231 232 233 234 235 236 237 237 238 238 238 238 238 238 238 238 237 237 236 235 234 232 231 229 228 227 226 226 226 225 224 222 220 219 219 220 223 225 228 230 232 233 233 233 232 232 231 230 230 230 229 229 229 229 229 228 228 228 229 229 229 229 229 228 228 228 227 227 226 226 225 226 227 229 230 231 231 231 231 231 231 231 231 231 231 231 230 230 229 228 227 226 225 224 224 224 224 224 224 224 224 224 224 224 224 224 224 224 224 224 224 224 224 224 224 223 223 224 224 224 224 224 224 224 224 223 223 223 222 221 220 217 214 212 209 208 208 208 208 208 208 208 208 209 209 209 209 210 210 210 209 209 209 209 209 209 208 208 208 208 208 208 208 208 208 208 208 207 207 207 207 207 207 207 207 207 207 207 207 207 207 207 207 207 207 207 207 207 207 207 207 207 207 207 207 207 207 207
 224 225 225 225 225 225 225 225 225 225 225 226 226 228 229 230 232 233 234 234 235 236 237 237 238 238 238 239 239 238 238 238 238 237 237 236 235 234 233 231 230 229 228 228 227 227 226 225 223 220 219 219 220 223 225 228 230 232 233 233 233 233 232 231 231 230 230 230 229 229 229 229 229 229 229 229 229 229 229 229 229 228 228 228 227 227 226 226 226 228 229 231 231 232 232 232 232 231 231 231 231 231 231 231 230 230 229 227 226 225 225 224 224 224 224 224 224 224 224 224 224 224 224 224 225 225 224 224 224 224 224 224 224 224 224 224 224 224 224 224 224 224 224 224 223 222 221 220 218 214 211 210 209 208 208 208 208 208 208 208 209 209 209 209 210 210 210 210 209 209 209 209 209 209 208 208 208 208 208 208 208 208 208 208 208 207 207 207 207 207 207 207 207 207 207 206 206 206 206 206 206 206 206 206 206 206 206 206 207 207 207 207 207 207 207
 225 225 225 225 225 225 225 226 226 226 227 227 228 230 231 232 233 234 234 235 236 236 237 238 238 238 239 239 239 239 238 238 238 237 237 236 235 234 233 232 230 230 229 229 229 228 227 225 223 221 219 219 220 223 225 227 230 232 233 233 233 233 232 232 231 231 230 230 230 229 229 229 229 229 229 229 229 229 229 229 229 229 228 228 228 227 226 226 227 228 229 231 231 232 232 232 232 232 231 231 231 231 231 231 231 230 229 228 227 226 225 225 224 224 224 224 224 224 224 224 224 224 224 225 225 225 225 225 224 224 224 224 224 224 224 224 224 225 224 224 224 224 224 224 223 222 221 220 217 214 211 210 209 209 209 209 208 208 208 208 209 209 209 209 210 210 210 210 209 209 209 209 209 209 208 208 208 208 208 208 208 208 208 208 208 207 207 207 207 207 207 207 207 207 207 206 206 206 206 206 206 206 206 206 206 206 206 206 206 206 206 206 206 206 206
 226 226 227 227 227 227 227 227 228 228 229 229 230 231 232 233 234 235 235 236 236 237 237 238 238 238 239 239 239 239 238 238 238 237 237 236 235 234 233 232 231 231 231 230 230 229 227 226 224 222 219 219 221 223 225 227 229 231 233 233 233 233 233 232 232 231 231 230 230 230 230 229 229 229 229 229 229 229 229 229 229 229 229 229 228 228 227 227 227 228 229 230 231 231 231 232 232 232 231 231 231 231 231 231 231 230 230 229 228 226 226 225 225 224 224 224 224 224 224 224 224 224 224 225 225 225 225 225 225 225 224 224 224 224 224 224 224 225 224 224 224 224 224 224 223 222 221 219 217 213 211 210 210 210 210 209 209 208 208 208 209 209 209 209 209 210 210 210 209 209 209 209 209 209 209 208 208 208 208 208 208 208 208 208 208 207 207 207 207 207 207 207 207 207 207 206 206 206 206 206 205 205 205 205 205 205 205 205 205 206 206 206 206 206 206
 227 228 228 228 229 229 229 229 229 230 230 231 232 233 234 235 235 236 236 236 237 237 238 238 238 239 239 239 239 239 238 238 238 237 237 236 236 235 234 233 232 232 232 231 230 229 228 226 224 223 221 220 221 223 225 227 229 231 232 233 233 233 233 232 232 231 231 231 230 230 230 230 230 229 229 229 229 229 229 229 229 229 229 229 229 228 228 228 228 228 228 229 230 231 231 231 231 231 231 231 231 231 231 231 231 231 230 230 229 227 226 225 225 225 224 224 224 224 224 224 224 225 225 225 225 225 225 225 225 225 225 225 225 225 224 224 224 225 224 224 224 224 224 224 223 222 221 219 216 213 212 212 212 211 211 210 209 209 208 208 209 209 209 209 209 209 210 210 209 209 209 209 209 209 209 208 208 208 208 208 208 208 208 208 208 207 207 207 207 207 207 207 207 207 207 206 206 206 206 206 206 205 205 205 205 205 205 205 205 205 205 206 206 206 206
 229 229 230 230 230 231 231 231 231 232 232 233 234 234 235 236 236 236 237 237 237 237 238 238 238 238 239 239 239 239 238 238 238 237 237 236 236 235 234 234 233 233 232 232 231 230 228 227 225 223 222 221 222 223 225 226 228 230 232 233 233 233 233 233 232 232 232 231 231 231 230 230 230 230 230 230 230 229 229 229 229 229 229 229 229 229 229 228 228 228 228 229 230 230 231 231 231 231 231 231 231 231 231 231 231 231 231 230 229 228 227 226 225 225 225 225 225 225 225 225 225 225 225 225 225 225 225 225 225 225 225 225 225 225 225 224 224 224 224 224 224 224 224 223 222 221 220 217 215 214 213 214 214 213 212 210 209 209 209 209 209 209 209 209 209 209 209 209 209 209 209 209 209 209 209 209 208 208 208 208 208 208 208 208 208 208 207 207 207 207 207 207 207 207 207 206 206 206 206 206 206 206 205 205 205 205 205 205 205 205 205 205 205 206 206
 230 231 231 232 232 232 233 233 233 233 234 234 235 236 236 236 237 237 237 237 238 238 238 238 238 238 238 238 238 238 238 238 238 237 237 236 236 235 235 234 234 233 233 232 231 230 229 227 226 224 223 222 222 223 224 226 228 230 232 233 233 233 233 233 233 232 232 232 232 231 231 231 231 231 230 230 230 230 230 230 230 230 230 230 230 230 229 229 228 228 228 229 229 230 230 231 231 231 231 231 231 231 231 231 231 231 231 231 230 229 228 227 226 226 225 225 225 225 225 225 225 225 225 225 225 225 225 225 226 226 226 225 225 225 225 224 224 224 224 224 224 224 223 223 222 221 219 216 215 215 216 217 217 216 214 211 210 209 209 209 209 209 209 209 209 209 209 209 209 209 209 209 209 209 209 209 208 208 208 208 208 208 208 208 208 208 207 207 207 207 207 207 207 207 207 206 206 206 206 206 206 206 206 206 205 205 205 205 205 205 205 205 205 205 205
 232 232 233 233 233 234 234 234 234 235 235 236 236 237 237 237 237 237 238 238 238 238 238 238 238 238 238 238 238 238 238 238 237 237 237 236 236 235 235 234 234 233 233 232 231 230 229 228 226 225 224 223 223 223 224 226 227 229 231 232 232 233 233 233 233 233 233 232 232 232 232 232 232 231 231 231 230 230 230 230 230 230 230 230 230 230 230 229 229 229 229 229 229 229 230 230 231 231 231 231 231 231 231 231 231 231 231 231 231 230 229 228 227 226 226 225 225 225 225 225 225 225 225 226 226 226 226 226 226 226 226 226 225 225 225 224 224 224 224 224 224 223 223 222 222 220 218 215 215 217 219 220 219 218 215 212 211 210 209 209 209 209 208 208 209 209 209 209 209 209 209 209 209 209 209 209 209 208 208 208 208 208 208 208 208 208 208 207 207 207 207 207 207 207 207 206 206 206 206 206 206 206 206 206 206 206 205 205 205 205 205 205 205 205 205
 233 233 234 234 235 235 235 236 236 236 237 237 237 237 238 238 238 238 238 238 238 238 238 238 238 238 238 238 238 238 238 238 237 237 237 236 236 235 235 234 234 233 233 232 231 230 229 228 226 225 224 223 223 223 224 225 227 229 230 232 232 233 233 233 233 233 233 233 232 232 232 232 233 232 232 231 231 231 231 231 231 231 231 231 231 231 230 229 229 229 229 229 229 229 230 230 230 230 230 231 231 231 231 231 231 231 231 231 231 231 230 229 228 227 226 226 226 225 225 225 225 226 226 226 226 226 226 226 226 226 226 226 225 225 224 224 224 224 223 223 223 223 222 222 221 219 217 216 217 220 221 222 221 220 217 214 211 210 210 209 209 208 208 208 208 208 209 209 209 209 209 209 209 209 209 209 209 209 208 208 208 208 208 208 208 208 208 208 207 207 207 207 207 207 207 207 206 206 206 206 206 206 206 206 206 206 206 205 205 205 205 205 205 205 205
 233 234 235 235 236 236 236 237 237 237 238 238 238 238 238 238 238 238 238 238 238 238 238 238 238 238 238 238 238 238 238 237 237 237 237 236 236 235 235 234 234 233 233 232 231 230 229 228 227 226 224 223 223 223 223 225 226 228 230 231 232 232 233 233 233 233 233 233 233 233 233 233 233 233 233 232 232 231 231 231 231 231 231 231 231 231 230 230 229 229 229 229 229 230 230 230 230 230 230 231 231 231 231 231 231 231 231 231 231 231 231 230 229 228 227 227 226 226 225 225 226 226 226 226 227 227 227 226 226 226 226 225 225 225 224 224 224 223 223 223 223 222 222 221 220 219 217 218 220 222 223 223 223 221 219 216 213 211 210 210 209 208 208 208 208 208 208 209 209 209 209 209 209 209 209 209 209 209 208 208 208 208 208 208 208 208 208 208 208 207 207 207 207 207 207 207 207 206 206 206 206 206 206 206 206 206 206 206 205 205 205 205 205 205 205
 234 235 236 236 237 237 237 238 238 238 238 239 239 239 239 239 239 238 238 238 238 238 238 238 238 238 238 238 238 237 237 237 237 237 236 236 235 235 234 234 233 233 232 232 231 230 229 228 227 226 225 223 223 223 223 224 226 228 229 231 232 232 233 233 233 233 233 233 233 233 233 233 233 233 233 233 232 232 232 231 231 231 231 231 231 231 231 230 230 229 229 229 230 230 230 230 230 230 230 230 231 231 231 231 231 231 231 231 231 231 231 230 230 229 228 227 227 226 226 226 226 226 227 227 227 227 227 227 226 226 226 225 225 224 224 224 223 223 223 223 222 222 222 221 220 219 218 219 221 223 223 223 223 222 221 218 215 212 211 210 209 208 208 208 208 208 208 208 209 209 209 209 209 209 209 209 209 209 209 208 208 208 208 208 208 208 208 208 208 207 207 207 207 207 207 207 207 207 207 207 207 207 207 207 207 207 206 206 206 206 205 205 205 205 205
 235 236 236 237 237 238 238 238 239 239 239 239 239 239 239 239 239 239 239 238 238 238 238 238 238 238 238 237 237 237 237 237 237 236 236 236 235 234 234 233 233 232 232 231 231 230 229 228 227 226 225 223 223 222 223 224 226 228 229 231 231 232 233 233 233 233 233 233 233 233 233 234 234 234 233 233 233 233 232 232 232 232 232 231 231 231 231 230 230 230 230 230 230 230 230 231 231 231 230 230 230 231 231 231 231 231 231 231 231 231 231 230 230 229 228 228 227 227 226 226 227 227 227 227 228 228 227 227 226 226 225 225 225 224 224 224 223 223 222 222 222 222 221 220 220 219 219 220 222 223 224 224 224 223 222 219 216 214 212 210 209 208 208 208 208 208 208 208 208 209 209 209 209 209 209 209 209 209 209 208 208 208 208 208 208 208 208 208 208 208 207 207 207 207 207 207 207 207 207 207 207 207 207 207 207 207 207 207 207 206 206 205 205 205 205
 236 237 237 238 238 239 239 239 239 239 240 240 239 239 239 239 239 239 239 238 238 238 238 238 238 238 237 237 237 237 237 237 236 236 236 235 234 234 233 233 232 231 231 230 230 229 228 227 227 226 225 223 223 222 223 224 226 228 230 231 232 232 233 233 233 233 233 233 233 233 234 234 234 234 234 234 234 233 233 232 232 232 232 231 231 231 231 230 230 230 230 230 230 231 231 231 231 231 231 231 230 231 231 231 231 231 231 231 231 231 231 230 230 229 229 228 228 227 227 227 227 228 228 228 228 228 228 227 227 226 225 225 224 224 224 224 223 223 222 222 221 221 221 220 220 220 220 221 222 223 224 224 224 223 222 221 218 215 213 211 209 209 208 208 208 207 207 208 208 209 209 208 209 209 209 209 209 209 209 209 208 208 208 208 208 208 208 208 208 208 208 207 207 207 207 207 207 207 207 207 207 207 207 207 207 207 207 207 207 207 206 206 206 205 205
 236 237 238 238 239 239 239 239 239 240 240 240 240 240 239 239 239 239 239 239 238 238 238 238 238 238 237 237 237 237 237 236 236 235 235 234 234 233 233 232 231 230 230 229 228 228 227 227 226 226 225 223 223 222 223 224 227 229 230 231 232 233 233 233 234 234 234 234 234 234 234 234 234 234 234 234 234 234 233 233 232 232 232 232 231 231 231 230 230 230 230 230 230 231 231 231 231 231 231 231 231 231 231 231 231 231 231 231 231 231 231 230 230 230 229 229 228 228 228 228 228 228 229 229 229 229 228 228 227 226 225 225 225 224 224 224 223 223 222 222 221 221 220 220 220 220 221 222 223 224 224 224 224 223 222 221 220 217 215 212 210 209 208 208 208 207 207 207 208 208 209 208 208 209 209 209 209 209 209 209 209 208 208 208 208 208 208 208 208 208 208 208 207 207 207 207 207 207 207 207 207 207 207 207 207 207 207 207 207 207 207 207 206 206 206
 237 238 238 239 239 239 240 240 240 240 240 240 240 240 240 239 239 239 239 239 238 238 238 238 238 237 237 237 237 236 236 236 235 235 234 233 233 232 232 231 230 229 228 227 227 226 226 226 226 225 224 223 223 222 223 225 227 229 230 231 232 233 233 234 234 234 234 234 234 234 234 234 234 234 234 234 234 234 233 233 232 232 232 232 231 231 231 230 230 230 230 230 231 231 231 232 232 232 231 231 231 231 231 231 231 231 231 231 231 231 231 230 230 230 229 229 229 229 229 229 229 229 229 229 229 229 229 228 228 227 226 225 225 224 224 224 223 223 222 222 221 221 220 220 221 221 221 222 223 224 224 224 224 224 223 222 221 219 216 214 211 209 208 208 208 208 207 207 208 208 209 208 208 209 209 209 209 209 209 209 209 208 208 208 208 208 208 208 208 208 208 208 208 208 207 207 207 207 207 207 207 207 207 207 207 207 207 207 207 207 207 207 207 206 206
 237 238 239 239 240 240 240 240 240 240 240 240 240 240 240 239 239 239 239 239 238 238 238 238 237 237 237 237 236 236 236 235 235 234 233 232 232 231 231 230 229 228 227 226 226 226 225 225 225 225 224 223 223 222 223 225 227 229 231 232 233 233 233 234 234 234 234 234 234 234 234 234 234 234 234 234 234 234 233 233 232 232 232 232 231 231 231 230 230 230 230 231 231 231 232 232 232 232 232 232 232 231 231 231 231 231 231 231 231 231 230 230 230 230 229 229 229 229 229 229 230 230 230 230 230 230 229 229 228 227 227 226 225 225 224 224 224 223 222 222 221 221 221 221 221 221 222 223 223 224 224 224 224 224 223 223 222 221 218 215 212 210 208 208 208 208 207 207 207 208 208 208 208 209 209 209 209 209 209 209 209 209 208 208 208 208 208 208 208 208 208 208 208 208 208 207 207 207 207 207 207 207 207 207 207 207 207 207 207 207 207 207 207 206 206
 238 239 239 240 240 240 240 240 240 240 240 240 240 240 240 239 239 239 239 239 238 238 238 238 237 237 237 236 236 235 235 235 234 233 232 231 231 231 230 229 228 227 226 226 225 225 225 225 225 224 223 223 223 223 223 225 227 229 231 232 233 233 234 234 234 234 234 234 234 234 234 234 234 234 234 234 234 234 233 233 233 232 232 232 231 231 231 230 230 230 230 231 231 232 232 232 232 232 232 232 232 232 231 231 231 231 231 231 231 231 230 230 230 230 230 230 229 230 230 230 230 230 231 231 230 230 230 229 229 228 228 227 226 225 225 224 224 223 223 222 222 221 221 221 222 222 223 223 223 224 224 224 224 224 224 224 223 222 220 217 213 210 209 208 208 208 207 207 208 208 208 208 208 208 209 209 209 209 209 209 209 209 208 208 208 208 208 208 208 208 208 208 208 208 208 208 207 207 207 207 207 207 207 207 207 207 207 207 207 207 207 207 207 206 206
 238 239 240 240 240 240 240 240 240 240 240 240 240 240 239 239 239 239 239 239 238 238 238 238 237 237 236 235 235 235 235 235 234 233 232 231 230 230 230 229 228 227 226 226 225 225 225 225 225 224 223 223 222 223 223 225 227 229 231 233 233 233 234 234 234 234 234 234 234 234 234 234 234 234 234 234 234 234 233 233 233 232 232 232 231 231 231 230 230 230 230 231 231 232 232 233 233 233 233 232 232 232 232 232 232 231 231 231 231 231 230 230 230 230 230 230 230 230 230 230 231 231 231 231 231 231 230 230 230 229 229 228 227 226 225 225 225 224 224 223 222 222 222 222 222 223 223 223 224 224 224 224 224 224 224 224 224 223 221 219 215 212 209 208 208 208 207 207 208 208 208 208 208 208 209 209 209 209 209 209 209 209 208 208 208 208 208 208 208 208 208 208 208 208 208 208 208 207 207 207 207 207 207 207 207 207 207 207 207 207 207 207 207 206 206
 239 240 240 241 241 240 240 240 240 240 240 240 240 240 239 239 239 239 239 239 238 238 238 237 237 236 236 236 235 235 236 236 235 234 233 232 231 231 231 230 229 228 227 227 226 226 226 226 225 224 223 223 222 223 223 225 227 229 231 233 233 233 234 234 234 234 234 234 234 234 234 234 234 234 234 234 234 234 233 233 233 232 232 232 231 231 231 230 230 230 230 231 232 232 233 233 233 233 233 233 232 232 232 232 232 232 231 231 231 231 231 230 230 230 230 230 230 230 231 231 231 231 232 231 231 231 231 231 231 230 230 229 228 228 227 226 225 225 224 224 223 223 223 223 223 223 223 224 224 224 224 224 224 224 224 224 224 223 222 220 217 213 210 209 208 208 207 208 208 208 208 207 208 208 209 209 209 209 209 209 209 209 209 208 208 208 208 208 208 208 208 208 208 208 208 208 208 208 207 207 207 207 207 207 207 207 207 207 207 207 207 207 207 206 206
 240 241 241 241 241 241 240 240 240 240 240 240 240 240 239 239 239 239 239 239 238 238 238 237 237 236 236 236 236 236 236 236 236 235 234 233 232 231 231 231 231 230 229 228 227 226 226 226 225 224 223 223 222 223 223 225 226 229 231 233 233 233 234 235 235 234 234 234 234 233 234 234 234 234 234 234 234 234 233 233 233 233 232 232 231 231 231 230 230 230 230 231 232 233 233 233 233 233 233 233 233 232 232 232 232 232 232 232 231 231 231 231 231 230 230 230 230 231 231 231 232 232 232 232 232 232 232 232 231 231 231 230 230 229 228 227 227 226 225 225 224 224 224 224 224 224 224 224 224 224 224 224 224 224 224 224 224 224 223 221 218 215 212 209 208 208 208 208 208 208 208 207 208 208 209 209 209 209 209 209 209 209 209 209 208 208 208 208 208 208 208 208 208 208 208 208 208 208 208 207 207 207 207 207 207 207 207 207 207 207 207 207 207 206 206
 241 241 241 241 241 241 240 240 240 240 240 240 240 240 239 239 239 239 239 239 238 238 238 237 237 236 236 236 236 236 236 236 236 236 235 234 233 232 232 232 232 231 230 229 228 227 227 226 225 224 223 223 222 222 223 224 226 229 231 233 233 233 234 235 235 234 234 234 234 233 233 233 234 234 234 234 234 234 233 233 233 233 232 232 231 231 231 230 230 230 230 231 232 233 233 233 233 233 233 233 233 233 233 232 232 232 232 232 232 231 231 231 231 231 231 231 231 231 231 232 232 232 232 232 232 232 232 232 232 232 232 231 231 230 230 229 228 227 226 226 225 225 225 225 224 224 224 224 224 225 225 225 225 225 225 225 224 224 223 222 220 217 213 210 209 208 208 208 208 208 208 207 208 208 208 209 209 210 210 210 209 209 209 209 208 208 208 208 208 208 208 208 208 208 208 208 208 208 208 208 207 207 207 207 207 207 207 207 207 207 207 207 207 206 206
 241 241 241 241 241 241 240 240 240 240 240 240 240 240 239 239 239 239 239 238 238 238 238 237 237 236 236 236 236 236 236 236 236 236 235 234 234 233 232 232 232 232 231 229 228 227 227 226 225 224 223 223 222 222 223 224 226 229 231 233 233 233 234 234 235 234 234 234 233 233 233 233 233 233 233 233 233 233 233 233 233 233 232 232 231 231 231 231 230 230 230 231 232 233 233 234 234 233 233 233 233 233 233 233 233 232 232 232 232 232 231 231 231 231 231 231 231 231 231 232 232 232 233 233 233 233 233 233 232 232 232 232 232 231 231 230 229 228 227 227 226 226 226 225 225 225 225 225 225 225 225 225 225 225 225 225 225 224 224 223 221 218 215 211 209 208 208 208 208 208 208 207 208 208 208 209 209 210 210 210 210 209 209 209 209 208 208 208 208 208 208 208 208 208 208 208 208 208 208 208 208 207 207 207 207 207 207 207 207 207 207 207 207 207 206
 241 242 241 241 241 241 240 240 240 240 240 240 240 240 239 239 239 239 239 238 238 238 238 237 237 236 236 236 236 236 236 236 236 236 235 235 234 233 233 232 232 231 230 229 228 227 226 225 225 224 223 223 222 223 223 224 226 229 231 233 233 234 234 234 235 234 234 234 233 233 233 233 233 233 233 233 233 233 233 233 233 233 232 232 231 231 231 231 230 230 231 231 232 233 233 234 234 233 233 233 233 233 233 233 233 233 232 232 232 232 232 231 231 231 231 231 231 231 232 232 232 233 233 233 233 233 233 233 233 233 232 232 232 232 231 231 230 230 229 228 227 227 226 226 226 226 226 225 225 226 226 226 226 226 226 225 225 225 224 224 222 219 217 213 210 208 208 208 208 208 208 207 208 208 208 209 209 210 210 210 210 210 209 209 209 208 208 208 208 209 209 208 208 208 208 208 208 208 208 208 208 208 207 207 207 207 207 207 207 207 207 207 207 207 206
 241 241 241 241 241 241 241 241 240 240 240 240 240 240 239 239 239 239 239 238 238 238 237 237 237 237 236 236 236 236 236 236 236 235 235 235 234 233 232 232 231 231 230 229 228 227 226 225 224 224 223 223 223 223 223 224 226 228 231 233 233 234 234 234 234 234 234 234 233 233 233 233 233 233 233 233 233 233 233 233 233 233 232 232 232 231 231 231 230 231 231 231 232 233 233 234 234 234 233 233 233 233 233 233 233 233 232 232 232 232 232 232 231 231 231 231 232 232 232 232 232 233 233 233 233 233 233 233 233 233 233 233 232 232 232 232 231 231 230 229 228 228 227 227 227 227 226 226 226 227 227 227 227 227 226 226 226 226 226 225 224 221 218 214 211 208 208 208 208 208 208 207 208 208 208 209 209 210 210 210 210 210 209 209 209 209 208 208 209 209 209 209 208 208 208 208 208 208 208 208 208 208 208 207 207 207 207 207 207 207 207 207 207 207 206
 241 241 241 241 241 241 241 241 241 240 240 240 240 240 239 239 239 239 239 238 238 238 238 237 237 237 237 236 236 236 236 236 236 235 235 234 233 233 232 231 230 230 229 228 227 226 225 225 224 224 223 223 223 223 223 224 226 228 231 232 233 234 234 234 234 234 234 234 233 233 233 233 233 233 233 233 233 233 233 233 233 233 232 232 232 231 231 231 231 231 231 232 232 233 233 234 234 234 233 233 233 233 233 233 233 233 233 232 232 232 232 232 232 232 232 232 232 232 232 232 232 233 233 233 234 234 234 234 234 233 233 233 233 232 232 232 232 231 231 230 230 229 229 228 228 228 227 227 227 228 228 228 228 228 227 227 227 227 227 226 225 222 219 215 211 209 208 208 208 208 208 207 208 208 208 209 209 210 210 210 210 210 209 209 209 209 209 209 209 209 209 209 209 208 208 208 208 208 208 208 208 208 208 208 207 207 207 207 207 207 207 207 207 207 206
 241 241 241 241 241 241 241 241 241 241 240 240 240 240 239 239 239 239 239 238 238 238 237 237 237 237 237 237 236 236 236 236 235 235 234 234 233 232 231 230 229 228 228 227 226 225 225 225 224 224 224 223 223 223 223 224 226 228 230 232 233 234 234 234 234 234 234 234 233 233 233 233 233 233 233 233 233 233 233 233 233 233 232 232 232 231 231 231 231 231 231 232 232 233 234 234 234 234 234 233 233 233 233 233 233 233 233 232 232 232 232 232 232 232 232 232 232 232 232 232 232 233 233 233 234 234 234 234 234 234 233 233 233 233 232 232 232 232 231 231 231 230 230 229 229 229 229 229 229 229 229 229 229 229 228 228 228 228 227 227 225 223 219 215 212 209 208 208 208 208 208 207 208 208 208 209 209 210 210 210 210 210 210 209 209 209 209 209 209 209 209 209 209 209 208 208 208 208 208 208 208 208 208 208 208 207 207 207 207 207 207 207 207 207 207
 241 241 241 241 241 241 241 241 241 241 240 240 240 240 240 239 239 239 239 238 238 238 237 237 237 237 237 236 236 236 236 235 235 234 234 233 232 231 230 229 228 227 227 226 225 225 225 225 225 225 224 224 224 224 224 224 226 228 230 232 233 234 234 234 234 234 234 234 233 233 233 233 233 233 233 233 233 233 233 233 233 233 232 232 232 232 231 231 231 231 231 232 233 233 234 234 234 234 234 234 234 233 233 233 233 233 232 232 232 232 232 232 232 232 232 232 232 232 232 232 232 233 233 233 234 234 234 234 234 234 234 233 233 233 233 232 232 232 232 232 231 231 230 230 230 230 230 230 230 230 230 230 230 230 229 229 229 228 228 227 225 223 220 216 213 210 208 208 208 208 208 207 208 208 208 209 209 209 210 210 210 210 210 209 209 209 209 209 209 209 209 209 209 209 209 208 208 208 208 208 208 208 208 208 208 207 207 207 207 207 207 207 207 207 207
 242 241 241 241 241 241 241 241 241 241 240 240 240 240 240 239 239 239 239 238 238 238 237 237 237 237 236 236 236 236 235 235 234 234 233 232 231 230 229 228 227 226 226 225 225 225 225 225 226 226 226 225 225 224 224 225 226 228 230 231 233 234 234 234 234 234 234 234 233 233 233 233 233 233 233 233 233 233 233 233 233 233 232 232 232 232 232 231 231 231 232 232 233 233 234 234 234 234 234 234 234 233 233 233 233 233 232 232 232 232 232 232 232 232 232 232 232 232 232 232 232 233 233 233 234 234 234 234 234 234 234 234 233 233 233 233 232 232 232 232 232 232 231 231 231 231 230 230 230 230 231 231 231 231 230 230 229 228 227 226 225 223 220 217 213 210 208 208 208 208 208 207 208 208 208 208 209 209 209 210 210 210 210 209 209 209 209 209 209 209 209 209 209 209 209 209 209 208 208 208 208 208 208 208 208 208 207 207 207 207 207 207 207 207 207
 242 242 241 241 241 241 241 241 241 241 240 240 240 240 240 239 239 239 238 238 238 238 237 237 237 237 236 236 236 235 235 234 233 233 232 231 230 229 228 227 226 226 225 225 225 226 226 226 226 227 227 226 226 225 225 225 226 227 229 231 233 234 234 234 234 234 234 234 234 233 233 233 233 233 233 233 233 233 233 233 233 233 233 232 232 232 232 232 232 232 232 232 233 233 234 234 234 234 234 234 234 233 233 233 233 232 232 232 232 232 232 232 232 232 232 232 232 232 232 232 233 233 233 233 234 234 234 234 234 234 234 234 234 233 233 233 233 232 232 232 232 232 232 232 231 231 231 231 231 231 231 231 231 231 231 231 230 228 227 226 225 223 220 217 214 211 208 208 208 208 208 207 208 208 208 208 209 209 209 209 210 210 210 210 209 209 209 209 209 209 209 209 209 209 209 209 209 209 208 208 208 208 208 208 208 208 208 207 207 207 207 207 207 207 207
 242 242 242 241 241 241 241 241 241 241 240 240 240 240 240 239 239 239 238 238 238 237 237 237 236 236 236 236 235 235 234 233 233 232 231 230 229 228 227 226 226 225 226 226 226 226 227 227 228 228 228 227 226 226 225 225 226 227 229 231 233 234 234 234 234 234 234 234 234 234 234 233 233 233 233 233 233 233 233 233 233 233 233 233 232 232 232 232 232 232 232 232 233 233 234 234 234 234 234 234 234 233 233 233 232 232 232 232 232 232 232 232 232 232 232 232 232 232 232 232 233 233 233 233 234 234 234 234 234 235 234 234 234 234 233 233 233 233 233 233 232 232 232 232 232 232 232 232 232 231 231 231 231 231 231 231 230 228 227 225 224 223 220 217 214 211 209 208 208 208 208 208 208 208 208 208 208 209 209 209 209 209 209 209 209 209 209 209 209 209 209 209 209 209 209 209 209 209 208 208 208 208 208 208 208 208 208 208 207 207 207 207 207 207 207
 242 242 242 241 241 241 241 241 241 241 240 240 240 240 239 239 239 238 238 238 237 237 237 236 236 236 235 235 235 234 233 232 232 231 230 229 228 227 226 226 226 226 226 227 227 228 228 228 229 229 229 228 227 226 225 225 226 227 229 231 233 234 234 235 235 234 234 234 234 234 234 234 233 233 233 233 233 233 233 233 233 233 233 233 233 232 232 232 232 232 232 232 232 233 233 234 234 234 234 234 234 233 233 233 232 232 232 232 232 232 232 232 232 232 232 232 232 232 232 232 233 233 233 233 234 234 234 234 235 235 235 234 234 234 234 234 233 233 233 233 233 233 232 232 232 232 232 232 232 232 231 231 231 231 231 231 230 228 226 225 224 222 220 217 214 211 209 208 209 209 209 208 208 208 208 208 208 208 208 209 209 209 209 209 209 209 210 209 209 209 209 209 209 209 209 209 209 209 208 208 208 208 208 208 208 208 208 208 208 207 207 207 207 207 207
 242 242 242 242 241 241 241 241 241 241 240 240 240 240 239 239 239 238 238 237 237 237 236 236 235 235 235 234 234 233 232 232 231 230 230 229 228 227 226 226 226 227 228 228 228 229 229 230 230 230 230 229 228 227 226 225 226 228 229 231 233 234 235 235 235 234 234 234 234 234 234 234 234 234 233 233 233 233 233 233 233 233 233 233 233 233 233 232 232 232 232 232 232 233 233 234 234 234 234 234 234 233 233 232 232 232 232 232 232 232 232 232 232 232 232 232 232 232 232 232 232 233 233 233 234 234 234 235 235 235 235 235 234 234 234 234 234 234 233 233 233 233 233 232 232 232 232 232 232 232 231 231 231 231 230 230 229 227 226 225 223 222 220 216 214 211 209 209 209 209 209 209 209 208 208 208 208 208 208 208 208 209 209 209 209 210 210 210 209 209 209 209 209 209 208 208 208 208 208 208 208 208 208 208 208 208 208 208 208 208 208 207 207 207 207
 242 242 242 242 242 241 241 241 241 241 240 240 240 240 239 239 238 238 237 237 236 236 236 235 234 234 234 233 233 233 232 231 231 230 229 228 228 227 227 227 228 228 229 229 230 230 230 231 231 231 230 230 229 227 226 226 226 228 229 231 233 234 235 235 235 235 235 234 234 234 234 234 234 234 234 233 233 233 233 233 233 233 233 233 233 233 233 233 232 232 232 232 232 232 233 233 234 234 234 234 234 233 233 232 232 232 232 232 232 232 232 232 232 232 232 232 232 232 232 232 232 233 233 233 234 234 234 234 235 235 235 235 234 234 234 234 234 234 234 233 233 233 233 233 232 232 232 232 232 231 231 230 230 229 229 228 227 226 225 224 222 221 218 215 213 210 209 210 210 211 211 210 210 209 208 208 208 208 208 208 208 208 209 209 209 210 210 210 210 210 209 209 209 209 208 208 208 208 208 208 208 208 208 208 208 208 208 208 208 208 208 208 208 207 207
 242 242 242 242 242 241 241 241 241 241 240 240 240 239 239 238 238 237 237 236 236 235 235 234 233 233 233 233 232 232 231 231 230 230 229 228 228 228 228 228 229 230 230 231 231 231 231 232 232 231 231 230 229 228 227 226 227 228 230 231 233 234 235 236 236 236 235 235 235 235 234 234 234 234 234 234 233 233 233 233 233 233 233 233 233 233 233 233 233 233 233 232 232 233 233 233 234 234 234 234 234 233 233 232 232 232 232 232 232 232 232 232 232 232 232 232 232 232 232 232 232 232 233 233 234 234 234 234 235 235 235 235 235 234 234 234 234 234 234 234 233 233 233 233 232 232 232 231 231 230 230 229 228 228 227 226 225 224 223 222 221 220 217 214 211 210 209 211 212 213 213 212 211 210 209 208 208 208 208 208 208 208 208 209 209 209 210 210 210 210 209 209 209 209 208 208 208 208 208 208 208 208 208 208 208 208 208 208 208 208 208 208 208 207 207
 242 242 242 242 242 242 241 241 241 240 240 240 240 239 239 238 237 237 236 236 235 234 234 233 232 232 232 232 232 231 231 230 230 229 229 229 229 229 230 230 231 231 231 232 232 232 232 232 232 232 232 231 230 228 227 227 228 228 230 232 233 235 236 236 236 236 236 235 235 235 235 234 234 234 234 234 234 234 233 233 233 233 233 233 233 233 233 233 233 233 233 233 233 233 233 233 233 234 234 234 234 233 233 232 232 232 232 232 232 232 232 232 232 232 232 232 232 232 232 232 232 232 233 233 233 234 234 234 234 235 235 235 235 234 234 234 234 234 234 234 234 233 233 233 232 231 231 231 230 229 228 227 227 226 224 223 223 222 221 220 219 218 215 212 210 209 209 211 213 215 215 215 213 211 209 208 208 208 208 208 208 208 208 208 209 209 210 210 210 210 210 209 209 209 208 208 208 208 208 208 208 208 208 208 208 208 208 208 208 208 208 208 208 207 207
 242 242 242 242 242 242 241 241 241 240 240 240 239 239 238 238 237 236 235 235 234 233 233 232 231 231 231 231 231 231 230 230 230 229 230 229 230 231 231 231 232 232 232 233 233 233 233 233 233 232 232 231 230 229 228 228 228 229 230 232 234 235 236 236 236 236 236 236 235 235 235 235 234 234 234 234 234 234 234 234 234 233 233 233 233 233 233 233 233 233 233 233 233 233 233 233 233 234 234 234 234 234 233 233 232 232 232 232 232 232 232 232 232 232 232 232 232 232 232 232 232 232 232 233 233 234 234 234 234 234 235 234 234 234 234 234 234 234 234 234 234 233 233 232 231 231 230 230 228 228 227 226 224 223 221 221 220 219 219 218 217 215 213 211 209 209 209 211 215 217 218 218 216 212 210 208 208 208 208 208 208 208 208 208 209 209 209 210 210 210 210 209 209 209 208 208 208 208 208 208 208 208 208 208 208 208 208 208 208 208 208 208 208 207 207
 242 242 242 242 242 242 241 241 240 240 240 239 239 238 238 237 236 235 235 234 233 233 232 231 231 230 230 231 231 230 230 230 230 230 230 230 231 232 232 232 233 233 233 233 233 233 233 233 233 233 232 231 230 229 229 228 229 230 231 232 234 235 236 236 236 236 236 236 236 235 235 235 234 234 234 234 234 234 234 234 234 234 233 233 233 233 233 233 233 233 233 233 233 233 233 233 233 234 234 234 234 234 233 233 233 233 233 232 232 232 232 232 232 232 232 232 232 232 232 232 232 232 232 232 233 233 234 234 234 234 234 234 234 234 234 234 234 234 234 234 234 233 233 232 231 230 230 229 227 226 225 225 223 221 220 219 219 217 216 216 215 213 211 210 209 209 210 213 217 220 221 220 218 214 210 208 208 208 208 208 208 208 208 208 208 209 209 209 210 210 209 209 209 209 208 208 208 208 208 208 208 208 208 208 208 208 208 208 208 208 208 208 208 207 207
 242 242 242 242 242 242 241 241 240 240 239 238 238 237 237 236 235 234 234 233 233 233 232 231 230 230 230 230 230 230 230 230 230 230 231 231 232 232 233 233 234 234 234 234 234 234 234 233 233 233 232 231 230 229 229 229 229 230 231 233 234 235 236 236 237 236 236 236 236 235 235 235 235 234 234 234 234 234 234 234 234 234 233 233 233 233 233 233 233 233 233 233 233 233 233 233 234 234 234 234 234 234 234 233 233 233 233 233 233 233 232 232 232 232 232 232 232 231 231 231 232 232 232 232 233 233 234 234 234 234 234 234 234 234 234 234 234 234 234 234 234 233 233 232 232 231 230 229 228 226 225 224 223 222 221 220 218 216 214 213 212 211 210 209 209 210 212 215 219 222 223 223 221 217 211 209 208 208 208 208 208 208 208 208 208 208 209 209 209 209 209 209 209 209 208 208 208 208 208 208 208 208 208 208 208 208 208 208 208 208 208 207 207 207 207
 242 242 242 242 242 241 241 240 240 239 238 238 237 237 236 235 234 233 233 232 233 233 232 231 230 230 230 230 230 230 230 230 230 231 232 232 233 233 234 234 234 234 234 234 234 234 234 234 233 233 232 231 230 229 229 229 230 231 232 233 234 235 236 236 237 237 236 236 236 236 235 235 235 235 235 235 234 234 234 234 234 234 234 233 233 233 233 233 233 233 233 233 233 233 233 233 234 234 234 234 234 234 234 234 234 233 233 233 233 233 233 232 232 232 232 232 231 231 231 231 231 231 232 232 232 233 233 234 234 234 234 234 234 234 234 234 234 234 234 234 233 233 233 233 232 231 231 230 228 227 226 225 225 224 223 221 219 216 214 212 210 210 209 209 210 212 214 218 221 224 226 225 223 218 213 209 208 208 208 208 208 208 208 208 208 208 208 209 209 209 209 209 209 208 208 208 208 208 208 208 208 208 208 208 207 207 207 207 207 207 207 207 207 207 207
 242 242 242 242 241 241 240 240 239 238 237 237 236 236 235 234 234 233 232 232 232 233 232 232 231 230 229 229 229 230 230 230 231 232 232 233 234 234 235 235 235 235 235 235 235 235 234 234 233 232 232 231 230 229 229 229 230 231 232 233 234 235 236 236 237 237 237 236 236 236 236 235 235 235 235 235 235 235 235 235 234 234 234 233 233 233 233 233 233 233 233 233 233 233 233 234 234 234 234 234 234 234 234 234 234 234 234 233 233 233 233 233 232 232 232 232 232 231 231 231 231 231 231 232 232 232 233 233 233 233 234 234 234 234 234 234 234 234 234 234 233 233 233 233 232 232 231 230 229 228 227 226 226 225 224 222 220 216 213 211 209 209 209 210 211 213 216 220 224 227 228 228 225 220 215 210 209 208 208 208 208 208 208 208 208 208 208 208 209 209 209 209 209 208 208 208 208 208 207 207 207 207 207 207 207 207 207 207 207 207 207 207 207 207 206
 242 241 241 241 241 240 240 239 238 237 237 236 235 235 234 233 233 233 232 232 232 233 233 232 231 230 229 229 229 230 230 231 232 233 233 234 234 235 235 235 236 236 236 235 235 235 234 234 233 232 231 231 230 229 229 229 231 232 233 234 235 235 236 236 237 237 237 236 236 236 236 236 236 236 235 235 235 235 235 235 235 234 234 234 233 233 233 233 233 233 233 233 233 233 234 234 234 234 234 234 234 234 234 234 234 234 234 234 234 233 233 233 232 232 232 232 232 231 231 231 231 231 231 231 232 232 232 233 233 233 233 233 233 233 233 233 233 233 233 233 233 233 233 233 232 232 231 230 229 228 227 227 226 226 224 222 219 215 212 210 209 209 210 211 212 215 218 222 225 228 230 230 227 223 217 212 209 208 208 208 208 208 208 208 208 208 208 208 209 209 209 209 208 208 208 208 207 207 207 207 207 207 207 207 207 207 207 207 207 207 207 206 206 206 206
 241 241 241 240 240 239 238 238 237 236 235 235 234 233 233 233 233 233 232 232 233 233 233 233 232 230 229 229 230 231 231 232 233 234 234 235 235 236 236 236 236 236 236 236 236 235 234 234 233 232 231 230 230 229 229 230 231 232 233 234 235 236 236 237 237 237 237 237 236 236 236 236 236 236 236 236 236 235 235 235 235 235 234 234 234 233 233 233 233 233 233 233 233 233 234 234 234 234 234 234 235 235 235 235 234 234 234 234 234 234 233 233 233 232 232 232 232 232 231 231 231 231 231 231 231 232 232 232 233 233 233 233 233 233 233 233 233 233 233 233 233 232 232 232 232 232 231 230 228 227 226 225 225 224 222 220 217 213 211 210 209 210 211 212 214 217 220 223 226 229 231 231 229 226 221 214 210 209 208 208 208 208 208 208 208 207 208 208 208 208 208 208 208 208 208 207 207 207 207 207 207 207 207 207 207 206 206 206 206 206 206 206 206 205 205
 240 240 240 239 239 238 237 236 235 235 234 234 234 233 233 233 233 232 232 232 233 233 233 233 232 231 230 230 231 232 233 233 234 235 235 236 236 236 236 237 237 237 237 236 236 235 234 234 232 231 231 230 229 229 229 230 231 232 233 234 235 236 236 237 237 237 237 237 237 237 237 237 236 236 236 236 236 236 236 236 236 235 235 234 234 233 233 233 233 233 233 233 233 234 234 234 234 234 234 235 235 235 235 235 235 235 234 234 234 234 233 233 233 232 232 232 232 232 231 231 231 231 231 231 231 231 231 232 232 233 233 233 233 233 233 233 233 233 232 232 232 232 231 231 231 231 230 229 227 225 224 223 223 221 219 217 214 212 210 210 210 211 212 214 216 219 222 225 227 229 231 231 230 228 224 218 213 210 208 208 208 208 208 208 207 207 207 208 208 208 208 208 208 208 207 207 207 207 207 207 206 206 206 206 206 206 206 206 206 206 205 205 205 205 205
 239 239 238 238 237 237 236 235 234 234 233 233 233 233 234 233 233 232 232 232 233 233 233 233 232 231 230 231 232 233 234 235 235 236 236 236 237 237 237 237 237 237 237 237 236 235 234 233 232 231 230 230 229 229 230 230 231 232 233 234 235 236 236 237 237 237 237 237 237 237 237 237 237 237 237 236 236 236 236 236 236 235 235 234 234 233 233 233 233 233 233 233 234 234 234 234 234 235 235 235 235 235 235 235 235 235 235 234 234 234 233 233 233 232 232 232 232 232 232 231 231 231 231 231 231 230 231 231 232 232 232 232 232 232 232 232 232 232 231 231 231 230 230 230 230 230 229 227 225 223 221 220 219 218 216 214 212 210 210 210 210 212 213 215 218 221 224 226 228 230 231 231 231 229 227 222 216 211 209 208 208 208 208 207 207 207 208 208 208 208 208 208 208 207 207 207 207 207 206 206 206 206 206 206 206 205 205 206 206 205 205 205 205 206 206
 238 237 237 236 236 235 234 234 233 233 233 234 234 234 235 234 233 233 232 232 233 233 234 233 233 232 232 232 234 235 235 236 236 236 237 237 237 237 237 237 237 237 237 237 236 235 234 233 232 231 230 230 229 229 230 231 231 232 233 234 235 236 236 237 237 237 237 237 237 237 237 237 237 237 237 237 237 236 236 236 236 235 235 234 234 233 233 233 233 233 233 234 234 234 234 234 235 235 235 235 235 235 235 235 235 235 235 234 234 234 233 233 233 233 232 232 232 232 232 232 231 231 231 231 230 230 230 230 231 232 232 232 232 232 231 231 231 230 229 229 229 228 228 228 228 227 226 225 223 221 219 218 216 215 213 211 210 210 210 210 211 213 215 218 220 223 225 227 229 230 231 231 231 230 228 224 218 213 209 208 208 208 208 208 208 208 208 208 208 208 208 208 208 207 207 207 207 207 206 206 206 206 206 206 206 206 206 206 206 206 206 206 206 206 206
 237 236 235 235 234 233 233 233 232 233 234 234 235 236 236 235 234 233 232 232 232 233 235 235 234 234 234 235 235 236 237 237 237 237 237 238 238 238 238 238 238 238 237 237 236 235 234 232 231 230 230 230 230 230 230 231 231 232 233 234 235 236 236 237 237 237 237 237 237 237 237 237 237 237 237 237 237 237 236 236 236 235 235 234 234 233 233 233 233 233 234 234 234 234 234 235 235 235 235 235 235 235 235 235 235 235 235 235 234 234 233 233 233 233 233 232 232 232 232 232 232 231 231 230 230 229 229 229 230 231 231 231 231 231 230 229 229 228 227 226 226 226 225 225 225 224 223 221 220 218 217 215 214 212 211 210 210 210 210 211 213 215 217 220 223 225 227 228 230 231 231 231 231 230 228 225 220 214 210 208 208 208 208 208 208 208 208 208 208 208 208 208 208 207 207 207 207 207 207 207 206 206 206 206 206 206 206 206 206 206 206 206 206 206 206
 235 234 234 233 233 233 233 233 233 234 235 236 236 236 236 236 235 233 232 232 233 234 236 236 236 236 236 237 237 238 238 238 238 238 238 238 238 238 238 238 238 238 237 237 236 234 233 232 231 230 230 230 230 230 230 231 231 232 233 234 235 236 236 237 237 237 237 238 238 238 237 237 237 237 237 237 237 237 236 236 236 235 235 234 234 233 233 233 233 234 234 234 234 235 235 235 235 235 235 235 235 235 235 235 235 235 235 235 235 234 234 233 233 233 233 233 233 232 232 232 232 231 231 230 229 228 228 228 228 229 230 230 230 229 228 227 226 225 224 223 223 223 222 222 221 220 219 218 217 216 215 213 212 210 210 209 209 210 211 213 215 217 220 223 225 227 228 229 230 231 232 231 231 230 227 224 220 215 211 209 208 208 208 208 208 208 208 208 208 208 208 208 208 208 208 208 207 207 207 207 207 207 206 206 206 206 206 206 206 206 206 206 206 206 206
 234 234 234 234 234 234 234 234 235 236 236 237 237 237 236 236 235 233 233 233 234 235 236 237 237 238 238 239 239 239 239 239 239 239 239 239 239 238 238 238 238 237 237 236 235 234 233 231 231 231 231 231 230 230 230 231 231 232 233 234 235 236 236 237 237 237 237 238 238 238 238 238 237 237 237 237 237 236 236 236 236 235 235 234 234 234 234 234 234 234 234 234 235 235 235 235 235 235 235 235 235 235 235 235 235 235 235 235 235 234 234 234 233 233 233 233 233 233 233 232 232 232 231 230 229 227 226 226 227 228 229 229 229 228 226 224 223 221 221 220 220 219 219 218 217 216 216 215 214 213 212 211 209 209 209 209 210 211 213 215 217 220 223 226 228 229 230 230 231 231 232 232 231 229 227 223 220 215 211 209 208 208 208 208 208 208 208 208 208 208 208 208 208 208 208 208 208 208 208 207 207 207 207 207 207 207 207 207 207 207 206 206 206 206 206
 234 235 235 235 235 235 235 236 236 236 237 237 237 237 237 236 235 233 233 233 234 236 237 238 238 239 240 240 240 240 240 240 240 240 239 239 239 239 238 238 238 237 237 236 235 234 233 232 232 232 232 231 231 230 230 231 232 233 233 234 235 236 236 237 237 237 238 238 238 238 238 238 237 237 237 237 236 236 236 236 235 235 235 234 234 234 234 234 234 234 234 235 235 235 235 235 236 236 236 236 236 235 235 235 235 235 235 235 235 235 234 234 234 233 233 233 233 233 233 232 232 231 231 230 228 227 226 225 225 226 227 227 227 226 224 222 220 219 217 217 216 216 215 214 213 212 212 212 212 211 210 210 209 209 210 210 211 213 215 217 220 223 226 228 230 231 231 231 231 232 232 232 231 229 226 223 219 215 211 209 208 208 208 208 208 208 208 208 208 208 208 208 208 208 208 208 208 208 208 208 208 207 207 207 207 207 207 207 207 207 207 207 206 206 206
 235 236 236 237 237 237 237 237 237 237 237 238 238 237 237 236 235 233 233 234 235 236 237 238 239 240 241 241 241 241 241 241 241 240 240 240 239 239 238 238 238 237 236 235 235 234 233 233 234 234 233 232 231 230 230 231 232 233 233 234 235 236 236 237 237 237 238 238 238 238 238 238 237 237 237 236 236 236 236 235 235 235 235 235 234 234 234 234 235 235 235 235 235 235 236 236 236 236 236 236 236 236 236 236 236 236 235 235 235 235 235 234 234 234 234 234 233 233 233 233 232 231 231 230 228 227 225 224 224 225 225 225 225 223 221 219 218 216 215 214 214 213 212 212 211 211 211 211 211 211 210 210 210 210 211 212 213 215 217 219 222 224 227 229 231 231 231 231 232 232 232 231 231 229 227 223 219 214 210 209 209 209 209 208 208 208 208 208 208 208 208 208 208 208 208 208 208 208 208 208 208 208 207 207 207 207 207 207 207 207 207 207 207 207 207
 237 237 238 238 238 238 238 238 238 238 238 238 238 238 237 236 235 233 233 233 235 236 237 238 240 241 241 242 242 242 242 242 242 241 241 240 240 239 238 238 237 237 236 235 234 234 234 234 235 235 234 233 231 230 230 231 232 233 233 234 235 236 236 237 237 237 238 238 238 238 238 238 237 237 237 236 236 235 235 235 235 235 235 235 235 235 235 235 235 235 235 235 235 236 236 236 236 236 236 236 236 236 236 236 236 236 236 235 235 235 235 234 234 234 234 234 233 233 233 232 232 231 230 229 228 227 225 224 223 223 223 223 222 221 219 217 216 215 213 213 212 212 212 211 211 211 211 211 211 211 211 211 211 212 213 214 215 216 218 220 222 225 227 229 231 231 232 232 232 232 232 231 231 229 227 223 219 214 211 211 211 211 209 209 208 208 208 208 208 208 208 208 208 208 209 209 209 209 209 208 208 208 208 207 207 207 207 207 207 207 207 207 207 207 207
 238 238 239 239 239 239 239 239 239 239 239 238 238 238 238 237 236 234 233 233 234 236 237 239 240 241 242 242 243 243 243 242 242 242 241 241 240 239 238 238 237 236 235 235 234 234 235 235 236 236 235 233 231 230 230 231 232 233 233 234 235 235 236 237 237 237 238 238 238 238 238 238 237 237 237 236 235 235 235 236 235 235 235 235 235 235 235 235 235 235 236 236 236 236 236 236 236 236 237 237 237 237 237 236 236 236 236 235 235 235 235 235 234 234 234 234 233 233 233 232 231 231 230 229 228 227 225 223 222 221 221 220 220 219 217 216 215 214 213 213 213 212 212 212 212 212 212 213 213 213 213 213 215 215 216 217 217 218 219 220 222 225 227 229 230 231 232 232 232 232 232 231 231 229 227 224 220 215 212 214 216 214 211 209 208 208 208 208 208 208 208 208 208 208 209 209 209 209 209 209 208 208 208 208 208 207 207 207 207 207 207 207 207 207 207
 239 240 240 240 240 240 240 240 240 239 239 239 238 238 238 237 236 234 233 233 234 236 237 239 240 241 242 243 243 243 243 243 243 242 241 241 240 239 238 238 237 236 235 235 235 235 235 236 236 236 236 234 232 230 230 231 232 232 233 234 235 235 236 237 237 237 238 238 238 238 238 238 238 237 237 236 236 236 236 236 236 236 235 235 235 235 235 235 236 236 236 236 236 236 236 236 236 237 237 237 237 237 237 237 236 236 236 235 235 235 235 234 234 234 234 234 233 233 232 232 231 230 229 228 228 227 225 223 221 219 218 218 217 217 216 215 214 213 213 213 213 213 213 214 214 214 215 215 215 215 215 216 217 218 219 220 220 220 219 220 222 224 226 228 229 230 231 232 232 232 232 232 231 229 227 224 220 216 213 217 220 218 214 211 209 208 208 208 208 208 208 208 208 209 209 209 209 209 209 209 209 209 208 208 208 208 208 208 208 208 207 207 207 207 207
 241 241 241 241 241 241 241 241 240 240 239 239 238 238 238 237 236 235 233 234 234 236 237 239 240 241 242 243 243 243 243 243 243 242 242 241 240 239 238 237 237 236 235 235 235 236 236 237 237 237 236 235 232 230 230 231 232 232 233 234 234 235 236 237 237 237 238 238 238 238 238 238 238 237 237 236 236 236 236 236 236 236 236 235 235 235 236 236 236 236 236 236 236 236 236 236 236 237 237 237 237 237 237 237 236 236 236 235 235 235 234 234 234 234 234 233 233 232 232 231 230 229 228 227 227 226 224 221 219 218 217 216 215 215 214 214 213 213 213 213 213 214 214 215 216 217 217 217 217 217 217 218 219 221 222 222 222 222 221 220 222 223 225 227 229 230 231 232 232 232 232 232 231 229 227 224 221 217 215 219 223 222 217 212 209 208 208 208 208 208 208 208 208 209 209 209 210 210 209 209 209 209 208 208 208 208 208 208 208 208 208 208 207 207 207
 241 242 242 242 242 242 241 241 240 240 239 239 239 238 238 237 236 235 233 234 235 236 238 239 240 241 242 243 243 243 243 243 243 242 242 241 240 239 238 237 237 236 235 235 236 236 237 237 237 237 237 235 233 231 230 231 231 232 233 234 235 235 236 237 237 237 238 238 238 238 238 238 238 237 237 237 236 236 236 236 236 236 236 236 236 236 236 236 236 236 236 236 236 236 236 236 236 237 237 237 236 236 236 236 236 235 235 235 234 234 234 234 234 233 233 233 232 231 230 229 228 227 226 225 225 224 222 220 218 217 215 214 214 214 214 213 213 213 213 213 214 214 216 217 218 219 219 219 219 219 219 220 221 223 224 225 225 224 223 222 222 223 225 227 229 230 231 232 233 233 232 232 231 230 228 225 221 217 215 219 224 224 220 214 210 209 208 208 208 208 208 208 208 208 209 209 210 210 210 210 209 209 209 208 208 208 208 208 208 208 208 208 208 207 207
 242 242 242 242 242 242 242 241 241 240 240 239 239 238 238 237 236 234 233 234 236 237 238 239 240 241 242 243 243 243 243 243 243 242 242 241 240 239 238 237 237 236 236 236 236 237 237 238 238 238 237 235 233 231 230 231 231 232 233 234 235 235 236 237 237 238 238 238 238 238 238 238 238 237 237 237 237 237 236 236 236 236 236 236 236 236 236 236 236 236 236 236 236 236 236 236 236 236 236 236 236 235 235 235 235 234 234 234 234 233 233 233 233 233 232 232 231 230 229 228 227 225 224 223 222 221 219 218 216 215 214 214 213 213 213 213 213 213 213 214 214 216 218 220 221 222 222 222 221 221 221 222 223 224 226 227 227 226 226 224 224 224 226 227 229 230 231 232 233 233 233 232 231 230 228 225 222 218 216 219 224 226 222 216 211 209 208 208 208 208 208 208 208 208 209 209 210 210 210 210 209 209 209 209 208 208 208 208 208 208 208 208 208 208 207
 243 243 243 243 243 242 242 241 241 240 240 239 239 239 238 237 236 234 233 234 236 237 238 239 240 241 242 243 243 243 243 243 243 242 241 241 240 239 238 237 237 236 236 236 237 237 238 238 238 238 237 236 234 232 231 230 231 232 233 234 235 236 236 237 237 238 238 238 238 238 238 238 238 238 237 237 237 237 237 237 237 237 236 236 236 236 236 236 236 236 236 236 236 236 236 236 236 236 235 235 234 234 233 233 233 233 233 232 232 232 232 232 232 232 231 231 230 229 228 226 225 224 223 221 220 218 217 216 215 214 214 214 213 213 213 213 213 213 214 214 216 219 221 223 224 224 225 224 223 223 223 223 224 226 227 228 228 228 228 226 225 225 226 227 229 231 232 232 233 233 233 232 231 230 228 226 222 218 216 218 224 226 224 218 212 210 208 208 208 208 208 208 208 208 209 209 210 210 210 210 210 209 209 209 209 208 208 208 208 208 208 208 208 208 208
 243 243 243 243 243 242 242 242 241 241 240 240 239 239 238 237 236 234 233 235 236 237 238 240 241 242 242 243 243 243 243 243 243 242 241 241 240 239 238 238 237 237 237 237 238 238 239 239 239 238 237 236 235 233 231 231 231 232 233 234 235 236 237 237 238 238 238 238 239 239 238 238 238 238 238 238 237 237 237 237 237 237 237 236 236 236 236 236 236 236 236 236 236 236 236 236 235 235 234 234 233 232 231 231 231 231 231 230 230 230 231 230 230 230 230 229 228 227 226 225 224 222 221 219 218 216 215 214 214 214 214 214 214 214 214 214 214 214 214 215 218 221 224 226 227 228 227 227 225 225 225 225 226 227 228 229 229 229 229 228 226 226 226 228 230 231 232 233 233 233 233 232 231 230 228 226 222 219 217 219 224 226 225 220 214 210 209 208 208 208 208 208 208 208 209 209 210 210 210 210 210 209 209 209 209 208 208 208 208 208 208 208 208 208 208
 243 243 243 243 243 243 242 242 241 241 241 240 240 239 238 237 236 235 234 235 236 238 239 240 241 242 242 243 243 243 243 243 243 242 241 241 240 239 238 238 238 237 237 238 238 239 239 239 239 239 238 237 235 233 232 231 231 233 234 235 236 236 237 238 238 238 238 239 239 239 239 238 238 238 238 238 238 237 237 237 237 237 237 237 237 237 237 237 237 236 236 236 236 236 236 235 235 234 233 232 231 231 230 229 229 229 229 228 228 228 228 228 228 228 228 227 226 226 225 223 222 221 220 218 216 215 215 215 215 215 215 215 215 215 215 214 214 214 215 216 219 222 225 228 230 230 230 229 228 227 226 227 227 228 229 230 230 230 230 229 228 227 227 228 230 231 232 233 233 233 233 232 231 230 228 226 223 219 217 220 224 226 226 221 215 211 209 208 208 208 208 208 208 208 208 209 210 210 210 210 210 210 209 209 209 209 208 208 208 208 208 208 208 208 208
 243 243 243 243 243 243 242 242 242 241 241 241 240 239 238 237 236 235 235 236 236 238 239 240 241 242 242 243 243 243 243 243 242 242 241 241 240 239 239 238 238 238 238 238 239 239 240 240 240 239 238 237 236 234 232 231 232 233 234 235 236 237 237 238 238 239 239 239 239 239 239 239 238 238 238 238 238 238 238 237 237 237 237 237 237 237 237 237 237 237 236 236 236 236 235 235 234 233 232 231 231 230 229 229 228 228 227 226 225 225 226 226 226 227 226 225 224 224 223 222 221 220 219 217 216 216 216 217 216 217 217 217 217 216 216 215 214 214 215 217 219 222 225 228 231 232 232 231 230 229 228 228 229 230 230 231 231 231 231 230 229 228 228 229 230 231 232 233 233 233 233 232 231 230 228 226 223 220 218 221 225 227 226 223 217 212 209 208 208 208 208 208 208 208 208 209 209 210 210 210 210 210 209 209 209 209 208 208 208 208 208 208 208 208 208
 243 243 243 243 243 243 242 242 242 242 241 241 240 239 238 238 236 236 235 236 237 238 239 240 241 242 242 243 243 243 243 243 242 242 241 241 240 239 239 239 239 239 239 239 240 240 240 240 240 239 239 237 236 235 233 232 232 233 234 235 236 237 238 238 239 239 239 239 239 239 239 239 239 238 238 238 238 238 238 238 237 237 237 237 237 237 237 237 237 237 236 236 236 236 235 235 234 233 232 231 231 231 231 230 229 228 227 225 224 224 224 224 224 225 224 223 223 222 221 220 219 219 218 218 218 218 218 219 219 219 220 219 219 218 217 215 215 214 215 217 219 221 224 228 231 232 233 232 232 230 230 230 230 231 231 231 232 232 232 231 230 229 229 230 231 232 233 233 233 233 233 232 231 230 228 226 223 220 219 223 226 228 227 224 219 213 210 208 208 208 208 208 208 208 208 209 209 210 210 210 210 210 209 209 209 209 208 208 208 208 208 208 208 208 208
 243 243 243 243 243 243 242 242 242 241 241 241 240 239 238 238 237 236 236 236 237 238 239 240 241 242 242 242 243 243 243 242 242 242 241 241 240 240 239 239 239 239 239 240 240 240 241 241 241 240 239 238 237 235 234 232 232 233 234 236 237 238 238 239 239 239 239 239 239 239 239 239 239 239 239 238 238 238 238 238 238 238 238 238 237 237 237 237 237 237 236 236 236 236 235 235 234 233 232 232 232 231 231 231 230 230 229 227 227 226 225 224 223 223 222 221 221 220 219 219 218 218 218 218 219 220 221 222 223 223 222 222 220 219 217 216 215 214 215 217 219 221 224 227 230 232 233 233 233 232 231 231 231 231 232 232 232 232 232 231 231 230 230 231 231 232 233 233 233 233 233 232 231 230 228 226 223 220 220 224 227 229 229 225 220 215 210 208 208 208 208 208 208 208 208 208 209 210 210 210 210 210 210 209 209 209 208 208 208 208 208 208 208 208 208
 243 243 243 243 243 242 242 242 242 241 241 241 240 239 239 238 237 236 236 237 238 239 240 240 241 242 242 242 242 242 242 242 242 241 241 240 240 240 240 240 240 240 240 240 241 241 241 241 241 240 239 238 237 236 234 233 233 234 235 236 237 238 239 239 240 240 240 239 239 239 239 239 239 239 239 239 238 238 238 238 238 238 238 238 238 238 237 237 237 237 237 236 236 236 235 235 235 234 233 233 232 232 232 232 231 231 230 230 229 228 226 225 223 222 220 219 219 219 219 218 218 218 219 219 220 222 223 225 226 226 225 223 221 219 218 216 215 214 215 217 219 221 223 227 229 232 233 234 233 233 233 232 232 232 233 233 233 233 232 232 231 231 231 231 232 232 233 233 233 233 233 232 231 230 228 226 222 220 221 224 228 230 230 227 222 216 210 209 208 208 208 208 208 208 208 208 209 209 210 210 210 210 210 209 209 209 208 208 208 208 208 208 208 208 208
 243 243 243 243 243 242 242 242 242 241 241 240 240 239 239 238 237 237 237 238 238 239 240 241 241 242 242 242 242 242 242 242 242 241 241 240 240 240 240 240 240 240 240 241 241 241 241 241 241 240 240 239 238 236 235 233 233 234 235 236 238 239 240 240 240 240 240 240 239 239 239 239 239 239 239 239 239 238 238 238 238 238 238 238 238 238 238 237 237 237 237 236 236 236 236 235 235 235 234 233 233 233 232 232 232 232 231 231 230 229 227 225 223 221 220 219 219 219 219 219 219 219 220 221 222 224 226 227 227 227 226 224 222 220 218 216 215 214 215 217 219 221 223 226 229 232 233 234 234 234 234 233 233 233 233 233 233 233 232 232 232 231 231 232 232 233 233 233 233 233 233 232 231 230 228 225 222 220 222 226 229 231 230 228 223 217 212 209 208 208 208 208 208 208 208 208 208 209 210 210 210 210 210 209 209 209 209 208 208 208 208 208 208 208 208
 243 243 243 243 243 242 242 242 241 241 241 240 240 239 239 238 238 238 238 238 239 240 240 241 241 242 242 242 242 242 242 242 242 241 241 241 240 240 240 240 241 241 241 241 241 241 241 241 241 241 240 239 238 237 235 233 233 234 235 237 238 240 240 240 240 240 240 240 240 240 239 239 239 239 239 239 239 238 238 238 238 238 238 238 238 238 238 238 237 237 237 237 236 236 236 236 236 235 235 234 233 233 232 232 232 231 231 231 230 228 226 225 222 221 220 220 220 219 219 219 219 220 221 222 224 226 227 229 229 228 227 225 223 220 218 216 215 214 215 217 219 221 224 226 229 231 233 234 234 234 234 234 234 234 234 234 233 233 233 232 232 232 232 232 232 233 233 233 233 233 233 232 231 230 227 224 221 221 223 227 230 231 231 229 225 219 213 209 208 208 208 208 208 208 208 208 208 209 210 210 210 210 210 209 209 209 208 208 208 208 208 208 208 208 208
 244 243 243 243 243 242 242 242 241 241 240 240 240 239 239 238 238 238 239 239 240 240 241 241 241 242 242 242 242 242 242 242 242 241 241 241 241 241 241 241 241 241 241 241 241 242 242 241 241 241 240 239 238 237 235 234 233 234 236 237 239 240 241 241 241 240 240 240 240 240 240 239 239 239 239 239 239 239 238 238 238 238 238 238 238 238 238 238 238 237 237 237 236 236 236 236 236 235 235 234 233 232 232 231 231 230 230 229 227 226 224 223 221 221 221 221 221 220 219 219 220 221 222 224 226 227 229 230 230 230 228 226 223 221 218 216 214 214 214 216 219 222 224 227 230 232 233 234 234 234 235 235 235 235 235 234 234 233 233 233 232 232 232 233 233 233 233 233 233 233 233 232 231 229 226 223 221 222 225 228 231 231 231 230 227 222 216 210 209 208 208 208 208 208 208 208 208 209 209 210 210 210 210 209 209 209 208 208 208 208 208 208 208 208 208
 244 244 243 243 243 242 242 242 241 241 240 240 240 239 239 239 239 239 239 240 240 241 241 241 242 242 242 242 242 242 242 242 242 242 241 241 241 241 241 241 241 241 242 242 242 242 242 241 241 241 240 240 238 237 235 234 234 235 236 238 240 241 241 241 241 241 240 240 240 240 240 240 239 239 239 239 239 239 239 239 238 238 238 238 238 238 238 238 238 237 237 237 237 236 236 236 236 235 234 233 233 232 231 230 229 228 227 226 225 224 223 222 222 222 223 223 222 221 220 220 221 222 223 225 227 229 230 231 231 230 229 227 224 221 218 216 214 214 214 216 219 222 225 228 230 232 233 234 234 235 235 235 236 236 235 235 234 234 233 233 233 233 233 233 233 233 233 233 233 233 232 232 230 228 225 222 221 224 226 229 231 232 232 231 229 225 218 212 209 208 208 208 208 208 208 208 208 209 209 210 210 210 210 209 209 209 208 208 208 208 208 208 208 208 208
 244 244 243 243 243 242 242 242 241 241 240 240 240 239 239 239 239 239 240 240 240 241 241 241 242 242 242 242 242 242 242 242 242 242 242 241 241 241 241 242 242 242 242 242 242 242 242 242 241 241 241 240 238 237 235 234 234 235 237 238 240 241 241 242 241 241 241 240 240 240 240 240 239 239 239 239 239 239 239 239 239 239 239 239 238 238 238 238 238 237 237 237 237 236 236 236 236 235 234 233 232 231 230 229 227 226 225 225 224 224 224 224 224 225 225 224 223 221 220 221 222 223 224 226 228 229 231 232 232 231 229 227 224 221 219 216 214 213 214 215 218 223 226 229 231 232 233 234 234 235 235 235 236 236 236 235 234 234 234 233 233 233 233 233 233 233 233 233 233 233 232 231 230 227 224 222 222 225 227 230 231 232 232 232 230 227 220 214 209 208 208 208 208 208 208 208 208 208 209 210 210 210 210 210 209 209 208 208 208 208 208 208 208 208 208
 244 244 244 243 243 242 242 241 241 240 240 240 240 239 239 239 239 240 240 240 241 241 241 242 242 242 242 242 242 242 242 242 242 242 242 242 242 242 242 242 242 242 242 242 242 242 242 242 241 241 241 240 238 237 236 235 235 236 237 239 240 241 242 242 242 241 241 241 240 240 240 240 240 239 239 239 239 239 239 239 239 239 239 239 238 238 238 238 238 237 237 237 236 236 236 235 235 234 233 232 231 230 228 227 226 225 225 224 225 226 226 227 227 227 226 225 223 221 221 222 222 223 225 227 228 230 232 232 232 231 229 227 224 222 219 217 214 213 214 215 218 223 227 229 231 232 233 234 235 235 235 236 236 236 236 235 235 234 234 234 233 233 233 233 233 233 233 233 233 233 232 231 229 227 224 223 223 225 228 230 232 232 232 232 230 227 221 214 210 208 208 208 208 208 208 208 208 208 209 210 210 210 210 210 209 209 208 208 208 208 208 208 208 208 208
 244 244 244 243 243 242 242 241 241 240 240 240 240 240 240 240 240 240 240 241 241 241 242 242 242 242 242 242 242 242 242 242 242 242 242 242 242 242 242 242 242 242 242 242 242 242 242 242 242 241 241 240 238 237 236 235 235 236 238 239 241 241 242 242 242 242 241 241 241 240 240 240 240 239 239 239 239 239 239 239 238 238 238 238 238 238 238 238 238 237 237 237 236 236 235 235 234 232 231 231 230 228 227 226 225 225 226 227 227 228 229 229 229 228 227 225 223 222 222 223 223 224 226 227 229 231 232 232 232 231 229 227 225 222 220 217 215 213 214 215 218 222 226 228 230 232 233 234 235 236 236 236 236 236 236 236 235 235 234 234 234 234 234 233 233 233 233 233 233 232 232 231 229 227 225 224 223 225 228 231 232 233 233 232 230 227 221 214 210 208 208 208 208 208 208 208 208 208 209 209 210 210 210 210 209 209 208 208 208 208 208 208 208 208 208
 244 244 244 243 243 242 242 241 241 240 240 240 240 240 240 240 240 240 241 241 241 241 242 242 242 242 242 242 242 242 242 242 242 242 242 242 242 242 242 242 242 242 242 242 242 242 242 242 241 241 240 239 238 237 236 235 236 237 238 240 241 242 242 242 242 242 241 241 241 240 240 240 240 239 239 239 239 239 239 239 238 238 238 238 238 238 238 238 238 237 237 236 236 235 234 234 232 231 230 230 229 228 227 227 227 228 229 229 229 230 231 231 230 228 226 224 223 222 223 223 224 225 226 228 230 231 232 232 232 231 229 227 225 223 220 218 215 214 214 215 217 221 224 227 229 231 233 235 235 236 236 237 237 237 236 236 235 235 235 234 234 234 234 234 234 233 233 233 233 232 232 231 229 228 226 224 224 225 228 230 232 233 233 232 230 227 222 215 210 209 208 208 208 208 208 208 208 208 209 209 210 210 210 210 209 209 208 208 208 208 208 208 208 208 208
 244 244 244 243 243 242 242 241 241 240 240 240 240 240 240 240 240 241 241 241 241 242 242 242 242 242 243 243 243 243 243 243 243 242 242 242 242 242 242 242 242 242 242 242 242 242 242 241 241 241 240 239 238 236 236 236 237 238 239 240 241 242 242 242 242 242 242 241 241 241 240 240 240 239 239 239 239 239 239 238 238 238 238 238 238 238 238 238 237 237 236 236 235 234 234 233 232 231 230 230 229 229 229 229 230 230 231 231 231 232 232 231 230 227 225 224 223 223 224 224 225 226 227 229 230 231 232 232 231 231 229 227 225 223 220 218 216 214 214 215 217 219 222 226 229 231 233 235 236 236 237 237 237 237 236 236 236 235 235 234 234 234 234 234 234 233 233 233 233 232 231 231 230 229 227 225 224 225 227 230 232 233 233 232 231 228 224 218 212 209 208 208 208 208 208 208 208 208 208 209 210 210 210 209 209 209 208 208 208 208 208 208 208 208 208
 244 244 243 243 243 242 241 241 240 240 240 240 240 240 240 240 241 241 241 241 242 242 242 242 242 243 243 243 243 243 243 243 243 243 243 242 242 242 242 242 242 242 242 242 242 242 241 241 241 240 239 238 237 236 236 236 237 238 240 241 241 242 242 242 242 242 242 241 241 241 240 240 240 239 239 239 239 238 238 238 238 238 238 238 238 238 237 237 237 236 236 235 234 233 233 232 231 231 230 230 230 230 231 231 232 232 233 233 233 232 232 230 229 227 225 224 224 224 224 225 226 227 228 229 230 231 232 232 231 230 229 227 225 223 221 218 216 214 214 215 217 219 222 225 229 232 234 235 236 237 237 237 237 237 237 236 236 235 235 235 234 234 234 234 234 233 233 233 232 232 231 231 230 229 227 226 225 225 227 229 231 232 233 232 231 230 226 220 213 209 208 208 208 208 208 208 208 208 208 209 209 210 210 209 209 209 208 208 208 208 208 208 208 208 208
 244 243 243 243 242 242 241 241 240 240 240 240 240 240 240 241 241 241 241 242 242 242 242 242 243 243 243 243 243 243 243 243 243 243 243 242 242 242 242 242 242 242 242 242 242 241 241 241 240 239 239 238 237 237 236 237 238 239 240 241 242 242 242 242 242 242 242 241 241 241 240 240 240 239 239 239 238 238 238 238 238 238 238 237 237 237 237 237 236 236 235 234 233 232 232 231 231 230 230 231 231 232 232 233 233 234 234 234 233 232 231 230 228 226 225 225 225 225 225 225 226 227 228 229 231 231 232 232 231 230 229 227 225 223 221 219 216 214 214 216 218 220 223 226 229 232 234 236 237 237 238 238 237 237 237 236 236 235 235 235 234 234 234 234 234 233 233 233 232 232 231 231 230 229 228 226 225 225 227 229 231 232 233 232 232 230 226 220 213 209 208 208 208 208 208 208 208 208 208 209 209 209 209 209 209 209 208 208 208 208 208 208 208 208 208
 243 243 243 242 242 241 241 240 240 240 240 240 240 240 241 241 241 241 242 242 242 242 242 243 243 243 243 243 243 243 243 243 243 243 243 243 242 242 242 242 242 242 242 241 241 241 241 240 239 239 238 238 237 237 237 238 239 240 241 241 242 242 242 242 242 242 242 241 241 241 240 240 240 239 239 239 238 238 238 238 237 237 237 237 237 237 236 236 236 235 234 233 232 231 231 230 230 230 231 232 232 233 233 234 234 234 234 234 233 232 231 229 227 226 225 226 226 225 225 225 226 227 229 230 231 231 232 231 231 230 229 227 225 223 221 219 216 215 215 216 218 221 224 227 230 232 234 236 237 237 238 238 238 237 237 236 236 235 235 235 235 234 234 234 234 233 233 233 232 232 231 231 230 229 228 226 225 225 226 228 231 232 232 233 232 230 225 219 214 210 209 208 208 208 208 208 208 208 208 208 209 209 209 209 209 209 208 208 208 208 207 207 207 208 208
 242 242 242 241 241 241 240 240 240 240 240 240 240 240 241 241 241 242 242 242 242 242 243 243 243 243 243 243 243 243 243 243 243 243 243 243 242 242 242 242 242 242 241 241 241 241 240 239 239 239 238 238 238 238 238 239 239 240 241 242 242 242 242 242 242 242 242 241 241 241 240 240 239 239 239 238 238 238 237 237 237 237 237 236 236 236 235 235 235 234 233 232 231 231 230 230 230 231 232 233 234 234 234 235 235 235 235 234 233 231 230 228 226 226 226 227 227 226 226 226 227 228 229 230 231 231 232 231 231 230 229 227 225 223 220 218 216 215 215 217 219 222 225 228 230 232 234 236 237 238 238 238 238 237 237 236 236 235 235 235 235 234 234 234 234 234 233 233 232 231 231 230 230 229 228 227 226 226 226 228 230 231 232 233 232 230 226 221 216 211 209 208 208 208 208 208 208 207 208 208 209 209 209 209 209 209 208 208 208 207 207 207 207 207 207
 241 241 241 240 240 240 240 239 239 240 240 240 240 240 241 241 241 242 242 242 242 243 243 243 243 243 243 243 243 243 243 243 243 243 243 243 242 242 242 242 241 241 241 241 241 240 240 239 239 239 239 238 238 238 239 239 240 241 241 242 242 242 242 242 242 242 242 241 241 241 240 240 239 239 238 238 238 237 237 237 237 236 236 236 235 235 234 234 233 232 232 231 231 230 230 231 231 232 233 234 235 235 235 235 236 236 235 234 232 230 228 227 227 227 227 228 228 228 227 227 228 229 230 231 231 231 232 231 231 230 228 226 224 222 220 218 216 215 215 217 219 222 225 228 231 233 235 236 237 238 238 238 238 238 237 236 236 235 235 235 235 234 234 234 234 234 233 233 232 231 230 230 230 229 229 228 227 227 227 228 230 231 232 232 232 230 227 222 217 212 209 208 208 208 208 208 207 207 207 208 208 209 209 209 209 209 208 208 208 207 207 207 207 207 207
 240 240 240 240 239 239 240 240 240 240 240 240 240 241 241 241 242 242 242 242 243 243 243 243 243 243 243 243 243 243 243 243 243 243 243 242 242 242 242 241 241 241 241 240 240 240 240 239 239 239 239 239 239 239 239 240 241 241 242 242 242 242 242 242 242 242 242 241 241 241 240 240 239 239 238 238 237 237 237 236 236 236 235 235 234 234 233 232 232 231 231 231 231 231 231 232 232 233 234 235 235 236 236 236 236 236 235 233 231 229 228 227 227 228 228 229 229 229 229 229 230 230 231 231 231 231 231 231 230 229 227 226 224 222 219 217 216 215 216 217 220 222 226 229 231 233 235 236 237 238 238 238 238 238 237 236 236 235 235 235 235 235 234 234 234 234 233 233 232 231 231 230 230 230 229 229 229 229 229 229 230 231 232 232 232 231 228 223 217 212 209 208 208 208 208 208 207 207 207 208 208 209 209 209 209 208 208 208 208 207 207 207 207 207 207
 239 239 239 239 239 239 240 240 240 240 240 241 241 241 241 242 242 242 242 243 243 243 243 243 243 243 243 243 243 243 243 243 243 243 243 242 242 242 242 241 241 240 240 240 240 240 240 239 239 239 239 239 239 240 240 241 241 241 242 242 242 242 242 242 242 242 242 241 241 241 240 239 239 238 238 237 237 236 236 236 236 235 235 234 233 232 232 231 231 230 230 231 231 232 232 233 234 234 235 235 236 236 237 237 236 236 234 231 230 228 228 228 228 229 230 230 231 231 231 231 231 231 231 231 231 231 231 231 230 228 226 225 223 221 219 217 216 216 216 218 220 223 226 229 232 234 235 236 237 238 238 238 238 238 237 236 236 235 235 235 235 235 235 234 234 234 234 233 232 232 231 231 231 231 230 230 230 230 230 230 231 231 232 232 232 231 228 222 216 212 209 209 208 208 208 208 207 207 207 207 208 208 209 209 209 208 208 208 208 207 207 207 207 207 207
 240 239 240 240 240 240 240 240 241 241 241 241 241 241 242 242 242 242 243 243 243 243 243 243 243 243 243 243 243 243 243 243 243 243 243 242 242 242 241 241 241 240 240 240 240 240 240 239 239 240 240 240 240 240 241 241 242 242 242 242 242 242 242 242 242 242 242 242 241 240 240 239 239 238 238 237 237 236 236 236 235 235 234 233 232 231 231 230 230 231 231 232 232 233 234 235 235 236 236 236 237 237 237 237 236 234 232 230 229 229 229 229 230 230 231 232 232 232 232 232 232 232 232 232 231 231 231 230 228 227 225 223 222 220 218 217 216 216 217 219 221 224 227 230 233 234 236 237 238 238 238 238 238 238 237 236 236 235 235 235 235 235 235 235 234 234 234 233 233 232 232 232 231 231 231 231 231 231 231 231 231 232 232 232 232 231 228 223 217 213 210 209 208 208 208 208 207 207 207 207 208 208 209 209 209 208 208 208 207 207 207 207 207 207 207
 240 240 240 240 240 240 240 241 241 241 241 242 242 242 242 242 242 243 243 243 243 243 243 243 243 243 243 243 243 243 243 243 243 243 242 242 242 241 241 241 240 240 240 240 240 239 239 239 240 240 240 240 241 241 241 242 242 242 242 242 242 242 242 242 242 242 242 242 241 241 240 239 238 238 237 237 236 236 235 235 235 235 234 233 232 231 231 231 231 231 232 233 234 235 235 236 236 237 237 237 237 237 237 236 235 233 231 230 229 230 230 231 231 232 232 233 233 233 233 233 233 233 232 232 231 231 230 229 227 226 224 222 221 219 218 217 216 217 218 220 222 225 228 231 234 235 236 237 238 238 238 238 238 238 237 237 236 235 235 235 235 235 235 235 235 235 234 234 233 233 233 232 232 232 232 232 232 232 232 232 232 232 232 232 232 231 229 225 219 215 212 209 208 208 208 208 208 207 207 207 208 208 208 208 208 208 208 208 207 207 207 207 207 207 207
 241 240 240 240 240 240 241 241 241 242 242 242 242 242 243 243 243 243 243 243 243 243 243 243 243 243 243 243 243 243 243 243 242 242 242 242 241 241 241 240 240 240 240 239 239 239 239 239 240 240 240 241 241 241 242 242 242 243 243 243 243 243 242 242 242 242 242 242 241 240 240 239 238 237 237 236 236 236 235 235 235 235 234 234 233 232 232 232 232 233 233 234 235 236 236 237 237 237 237 237 237 237 236 235 233 231 230 230 231 231 232 233 233 233 234 234 234 234 234 234 233 233 232 232 231 230 229 227 226 224 223 221 220 219 218 217 217 218 219 221 224 227 229 232 235 236 237 238 238 238 238 238 238 238 237 237 236 236 235 235 235 235 235 235 235 235 235 234 234 234 233 233 233 232 232 232 232 232 232 232 232 232 232 232 232 231 230 227 222 217 213 210 209 208 208 208 208 207 207 207 207 208 208 208 208 208 208 208 207 207 207 207 207 207 207
 242 241 241 241 241 241 241 242 242 242 243 243 243 243 243 243 243 243 243 243 243 243 243 243 243 243 242 242 242 242 242 242 242 242 242 241 241 241 240 240 240 240 239 239 239 239 239 240 240 240 241 241 241 242 242 242 243 243 243 243 243 243 243 242 242 242 242 241 241 240 239 239 238 237 236 236 236 235 235 235 235 235 235 235 234 233 233 233 233 234 235 235 236 237 237 237 237 237 237 237 237 236 235 234 232 231 231 231 232 233 234 234 235 235 235 235 234 234 234 234 234 233 232 232 230 229 228 226 225 223 222 220 219 218 218 217 218 219 220 222 225 228 230 233 235 237 237 238 238 238 238 238 238 238 237 237 236 236 236 235 235 235 235 235 235 235 235 235 235 234 234 233 233 233 232 232 232 232 232 232 232 232 232 232 231 231 231 228 223 219 215 211 209 208 208 208 208 207 207 207 207 208 208 208 208 208 208 208 207 207 207 207 207 207 207
 243 242 242 242 242 242 242 242 243 243 243 244 244 244 244 244 244 243 243 243 243 243 243 243 243 242 242 242 242 242 242 242 242 242 241 241 241 240 240 240 240 239 239 239 239 239 239 240 240 240 241 241 242 242 243 243 243 243 243 243 243 243 243 242 242 242 242 241 241 240 239 238 237 236 236 236 235 235 235 236 236 236 236 236 235 235 234 234 234 235 236 236 237 237 238 238 238 238 237 237 236 235 234 233 232 232 232 233 234 235 235 236 236 236 236 235 235 234 234 234 233 233 232 231 230 228 227 225 223 222 221 220 219 218 218 218 218 220 222 224 226 229 231 234 236 237 238 238 238 238 238 238 238 237 237 237 236 236 236 236 235 235 236 236 236 236 236 236 235 235 234 234 233 233 232 232 232 231 231 231 231 231 230 230 230 230 230 228 225 220 216 212 209 208 208 208 208 207 207 207 207 208 208 208 208 208 208 208 208 207 207 207 207 207 207
 243 243 243 242 243 243 243 243 244 244 244 244 244 244 244 244 244 244 244 243 243 243 243 243 242 242 242 242 242 242 242 242 241 241 241 240 240 240 240 240 240 239 239 239 239 239 239 240 240 241 241 242 242 243 243 243 243 243 243 243 243 243 243 242 242 242 242 241 241 240 239 238 237 236 236 235 235 236 236 236 236 236 237 237 236 236 235 235 235 236 236 237 237 238 238 238 238 237 237 236 236 235 233 232 232 233 233 235 235 236 236 236 236 236 236 236 235 234 234 233 233 232 232 230 229 227 225 224 222 221 220 219 218 218 218 218 219 221 223 225 227 229 232 234 236 237 238 238 238 238 238 238 238 237 237 237 236 236 236 236 236 236 236 236 236 236 236 236 236 236 235 234 233 232 232 231 231 230 230 230 229 229 229 228 228 228 228 227 225 221 217 212 210 209 208 208 208 207 207 207 207 208 208 208 208 208 208 208 208 207 207 207 207 207 207
 244 243 243 243 243 244 244 244 244 245 245 245 245 245 245 244 244 244 244 244 243 243 243 243 242 242 242 242 242 242 241 241 241 241 240 240 240 240 240 240 239 239 239 239 239 239 239 240 240 241 241 242 243 243 243 244 244 244 244 244 243 243 243 242 242 242 241 241 240 240 239 238 237 236 236 236 236 236 236 236 236 237 237 237 237 236 236 236 236 236 237 237 238 238 238 238 238 237 237 236 235 234 233 232 233 234 235 236 237 237 237 237 237 236 236 235 235 234 233 233 232 232 231 229 228 226 224 222 221 220 219 219 218 218 218 219 220 222 224 226 228 230 232 234 237 238 238 238 238 238 238 238 238 237 237 237 236 236 236 236 236 236 236 236 236 237 237 237 236 236 235 234 233 232 231 230 230 229 228 228 227 226 226 225 225 225 225 224 223 220 216 212 210 209 208 208 208 207 207 207 207 207 208 208 208 208 208 208 208 207 207 207 207 207 207
 244 244 244 244 244 244 245 245 245 245 245 245 245 245 245 245 245 244 244 244 243 243 243 242 242 242 242 242 241 241 241 241 240 240 240 240 240 240 240 240 240 239 239 239 239 239 239 240 240 241 242 242 243 243 244 244 244 244 244 244 244 243 243 242 242 242 241 241 240 240 239 238 237 236 236 236 236 236 236 236 237 237 237 237 237 237 237 237 237 237 237 238 238 238 238 238 237 237 236 235 235 234 233 233 234 235 236 237 237 237 237 237 236 236 236 235 234 234 233 232 231 231 229 228 226 225 223 221 220 219 219 218 218 218 219 219 220 222 224 226 228 230 232 234 236 237 238 238 238 238 238 238 238 237 237 236 236 236 236 236 236 236 236 237 237 237 237 237 237 236 236 235 233 231 230 229 228 228 227 225 224 223 222 221 221 221 221 220 219 217 214 211 210 209 209 208 208 207 207 207 207 207 207 208 208 208 208 208 208 207 207 207 207 207 207
 244 244 245 245 245 245 245 246 246 246 246 246 246 246 245 245 245 244 244 244 243 243 243 242 242 242 242 241 241 241 241 240 240 240 240 240 240 240 240 240 240 240 240 240 240 240 240 240 241 242 242 243 244 244 244 244 244 244 244 244 244 243 243 242 242 242 241 241 240 240 239 238 237 236 236 236 236 236 236 237 237 237 238 238 238 238 238 238 238 238 238 238 238 238 238 238 237 237 236 235 234 234 234 234 235 236 237 237 238 238 237 237 236 236 235 235 234 233 232 231 230 230 228 227 225 224 222 221 220 219 218 219 219 220 220 220 220 222 224 226 228 230 232 234 236 237 238 238 238 238 238 238 238 237 237 236 236 236 236 236 236 236 237 237 237 237 237 237 237 236 236 235 233 231 229 228 227 226 225 224 223 221 220 219 218 218 217 217 215 214 212 211 210 210 209 209 208 207 207 207 207 207 207 208 208 208 208 208 208 207 207 207 207 207 207
 245 245 245 245 245 246 246 246 246 246 246 246 246 246 246 245 245 245 244 244 243 243 242 242 242 242 241 241 241 241 240 240 240 240 240 240 240 240 240 240 240 240 240 240 240 240 240 241 242 242 243 244 244 244 245 245 245 244 244 244 244 243 243 242 242 242 241 241 240 240 239 238 237 237 237 236 236 236 237 237 237 238 238 238 238 238 238 238 238 238 238 238 238 238 238 237 237 237 236 235 235 234 234 235 236 237 237 238 238 238 237 237 236 236 235 234 234 233 232 230 229 228 227 226 224 223 221 220 219 219 219 219 220 221 222 222 222 223 224 226 228 229 231 233 235 237 238 238 238 238 238 238 238 237 237 236 236 236 236 236 236 237 237 237 238 238 238 238 237 237 236 235 232 230 228 227 226 225 225 225 224 223 221 220 219 218 217 217 216 215 214 212 211 210 209 209 208 207 207 207 207 207 207 207 208 208 208 208 208 207 207 207 207 207 207
 245 245 246 246 246 246 246 246 247 247 247 246 246 246 246 245 245 245 244 244 243 243 242 242 242 241 241 241 241 240 240 240 240 240 240 240 240 240 240 240 241 241 241 241 241 241 242 242 243 243 244 244 245 245 245 245 245 245 244 244 244 243 243 242 242 242 241 241 241 240 239 239 238 237 237 237 237 237 237 237 238 238 238 238 238 238 238 238 238 238 238 238 238 238 238 237 237 236 236 235 235 234 235 235 236 237 238 238 238 238 237 237 236 235 235 234 233 232 231 230 228 227 226 224 223 222 221 220 219 219 219 220 222 224 225 225 225 224 224 226 227 229 231 233 235 237 238 238 238 238 238 238 238 237 237 236 236 236 236 236 236 237 237 237 238 238 238 238 237 237 236 234 232 229 228 227 226 226 226 227 227 227 226 223 222 221 220 219 219 218 216 214 213 211 210 209 208 208 207 207 207 207 207 207 208 208 208 208 208 208 207 207 207 207 207
 246 246 246 246 246 247 247 247 247 247 247 247 246 246 246 246 245 245 244 244 243 243 242 242 242 241 241 241 240 240 240 240 240 240 240 240 240 240 240 241 241 242 242 242 243 243 243 243 244 244 245 245 245 245 245 245 245 244 244 244 244 243 243 242 242 242 241 241 241 240 240 239 238 238 237 237 237 237 237 238 238 238 238 238 238 239 239 239 239 239 239 238 238 238 237 237 237 236 236 235 235 235 235 236 236 237 238 238 238 238 237 237 236 235 235 234 233 232 230 229 227 226 224 223 222 221 220 220 219 219 220 221 223 226 227 228 227 226 225 225 226 228 230 233 235 237 238 238 238 238 238 238 238 237 237 236 236 236 236 236 236 237 237 238 238 238 238 238 237 237 235 234 231 229 227 227 227 227 228 229 230 230 229 227 225 225 224 223 222 221 219 217 215 212 211 209 208 208 207 207 207 207 207 207 207 208 208 208 208 208 208 208 207 207 207
 246 246 246 247 247 247 247 247 247 247 247 247 247 246 246 246 245 245 244 244 243 243 242 242 242 241 241 241 240 241 241 241 241 241 241 241 240 241 241 242 242 243 243 244 244 244 244 244 245 245 245 246 246 245 245 245 245 244 244 244 243 243 243 242 242 242 241 241 241 240 240 239 239 238 238 238 238 238 238 238 238 238 238 239 239 239 239 239 239 239 239 238 238 238 237 237 236 236 235 235 235 235 236 236 237 237 238 238 238 238 237 236 236 235 234 234 232 231 230 228 226 225 223 222 221 220 220 219 219 220 221 222 225 228 230 230 229 228 226 225 226 228 230 233 235 237 238 238 238 238 238 238 238 237 237 236 236 236 236 236 237 237 237 238 238 238 238 238 237 236 235 233 231 229 228 228 228 229 230 231 232 232 231 230 228 228 227 226 225 223 221 218 216 213 211 210 209 208 207 207 207 207 207 207 207 208 208 208 208 208 208 208 208 208 208
 247 247 247 247 247 247 247 247 247 247 247 247 246 246 246 246 245 245 244 244 243 243 242 242 242 241 241 241 241 241 242 242 242 242 242 242 241 242 242 242 243 244 244 245 245 245 245 246 246 246 246 246 246 246 245 245 245 244 244 244 243 243 243 242 242 242 241 241 241 240 240 239 239 239 238 238 238 238 238 238 238 239 239 239 239 239 239 239 239 239 239 238 238 238 237 237 236 236 236 235 236 236 236 237 237 238 238 238 238 238 237 236 236 235 234 233 232 230 229 227 225 223 222 221 220 220 219 219 220 221 222 224 227 229 231 232 231 229 227 226 226 228 230 233 236 237 238 238 238 238 238 238 238 237 237 236 236 236 236 236 237 237 237 238 238 238 238 237 237 236 235 233 231 229 228 229 230 231 232 233 233 233 232 231 230 229 228 228 227 225 222 219 217 214 212 210 209 208 208 207 207 207 207 207 207 208 208 208 208 208 208 208 208 208 208
 247 247 247 247 247 247 247 247 247 247 247 247 246 246 246 245 245 245 244 244 243 243 243 243 242 241 241 241 242 242 243 244 244 243 243 243 243 243 243 243 244 245 245 246 246 246 246 246 246 246 246 246 246 246 245 245 244 244 244 243 243 243 242 242 242 242 241 241 241 240 240 240 239 239 239 239 239 239 239 239 239 239 239 239 239 239 239 239 239 239 239 238 238 238 237 237 236 236 236 236 236 236 237 237 238 238 238 238 238 237 237 236 235 234 233 232 231 229 227 225 224 222 221 220 220 219 219 220 220 221 223 226 228 230 232 233 232 230 228 227 227 229 231 233 236 237 238 238 238 238 238 238 238 237 237 236 236 236 236 236 237 237 237 238 238 238 237 237 236 236 234 233 231 229 229 230 231 232 233 234 234 234 233 232 231 230 229 228 227 225 222 219 217 215 212 210 209 208 208 207 207 207 207 207 207 208 208 208 208 208 208 208 208 208 208
 247 247 247 247 247 247 247 247 247 247 247 247 246 246 246 245 245 244 244 244 243 243 243 242 242 242 242 242 243 244 244 245 245 245 244 244 244 244 244 244 245 245 246 246 247 247 247 247 247 247 246 246 246 245 245 245 244 244 244 243 243 243 242 242 242 242 241 241 241 240 240 240 239 239 239 239 239 239 239 239 239 239 239 239 239 239 239 239 239 239 239 238 238 238 237 237 237 236 236 236 237 237 237 238 238 238 238 238 237 237 237 236 235 233 232 231 229 227 226 224 223 221 220 220 220 219 219 220 221 222 225 227 229 231 232 233 233 232 230 229 228 229 231 233 235 237 238 238 238 238 238 238 238 237 237 236 236 236 236 236 237 237 237 238 238 237 237 237 236 235 234 232 231 230 230 231 232 233 234 234 234 234 233 232 231 230 229 228 227 225 222 220 217 215 213 211 210 209 208 208 208 207 207 207 207 208 208 208 208 208 208 208 208 208 208
 247 247 247 247 247 247 247 247 247 247 247 246 246 246 245 245 245 244 244 244 243 243 243 243 243 243 243 244 244 245 246 246 246 246 246 245 245 245 245 245 245 246 246 247 247 247 247 247 247 247 247 246 246 245 245 245 244 244 243 243 243 242 242 242 242 242 241 241 241 240 240 240 240 240 240 240 240 239 239 239 239 239 239 239 240 240 240 240 239 239 239 239 238 238 238 237 237 237 237 237 237 238 238 238 238 238 238 237 237 236 236 235 234 232 230 229 227 226 224 223 222 221 220 220 220 220 219 220 221 223 225 227 229 231 232 233 233 233 231 230 230 230 231 233 235 236 237 238 238 238 238 238 238 237 237 237 236 236 236 236 237 237 237 238 238 237 237 236 235 234 233 232 231 230 231 232 233 234 235 235 235 234 234 233 231 230 229 228 226 225 222 220 218 217 215 212 210 209 209 208 208 208 207 207 208 208 208 208 208 208 208 208 208 208 208
 247 247 247 247 247 247 247 247 247 247 246 246 246 246 245 245 245 244 244 244 244 243 243 243 243 243 244 245 245 246 247 247 247 247 247 246 246 246 246 246 246 246 247 247 247 247 248 248 247 247 247 246 246 246 245 245 244 244 243 243 242 242 242 242 242 242 242 241 241 241 240 240 240 240 240 240 240 240 240 240 240 239 239 240 240 240 240 240 240 239 239 239 239 238 238 238 237 237 237 237 238 238 238 238 238 238 238 237 236 236 235 233 232 230 228 227 225 224 223 222 221 220 220 220 220 220 220 220 221 223 225 227 229 231 232 233 234 233 233 232 232 231 232 232 234 235 237 238 238 238 238 238 238 237 237 237 236 236 236 237 237 237 237 237 237 237 237 236 235 234 233 232 231 231 232 233 234 235 235 235 235 235 234 233 232 230 229 228 226 225 224 222 220 218 216 214 211 210 209 208 208 208 208 208 208 208 208 208 208 208 208 208 208 208 208
 248 248 247 247 247 247 247 247 247 246 246 246 246 245 245 245 245 244 244 244 244 244 243 243 244 244 245 246 246 247 247 248 248 248 248 247 247 247 247 247 247 247 247 247 248 248 248 248 247 247 247 246 246 246 245 245 244 243 243 243 242 242 242 242 242 242 242 241 241 241 241 240 240 240 240 240 240 240 240 240 240 240 240 240 240 240 240 240 240 240 239 239 239 239 238 238 238 238 238 238 238 238 238 238 238 238 237 237 236 235 233 231 230 228 226 225 224 223 222 221 221 220 221 221 221 221 220 220 221 222 225 227 229 230 232 234 234 234 234 233 233 233 233 233 234 235 236 237 238 238 238 238 238 237 237 237 237 236 237 237 237 237 237 237 237 237 237 236 235 234 232 232 232 232 233 234 234 235 235 235 235 235 234 233 232 231 230 229 227 226 225 223 221 219 217 214 212 210 210 209 208 208 208 208 208 208 208 208 208 208 208 208 208 208 208
 248 248 248 247 247 247 247 247 246 246 246 246 245 245 245 245 245 244 244 244 244 244 244 244 244 245 246 246 247 247 248 248 248 248 248 248 247 247 247 247 247 247 247 248 248 248 248 248 247 247 247 247 246 246 245 245 244 243 243 242 242 242 242 242 242 242 242 242 241 241 241 241 241 241 241 241 241 241 241 240 240 240 240 239 239 240 240 240 240 240 240 239 239 239 239 238 238 238 238 238 238 238 238 238 238 238 237 236 235 233 231 229 228 226 225 224 223 222 222 221 221 221 221 222 222 222 221 220 220 222 224 226 228 230 232 234 235 235 235 235 234 234 233 233 234 235 236 237 237 238 238 238 237 237 237 237 237 237 237 237 237 237 237 237 237 237 237 236 235 234 232 232 233 233 234 235 235 235 235 235 235 235 234 233 232 231 230 230 229 228 226 224 221 219 217 215 212 211 210 209 208 208 208 208 208 208 208 208 208 208 208 208 208 208 208
 248 248 248 248 247 247 247 247 246 246 246 245 245 245 245 245 245 245 245 244 244 244 244 245 245 246 246 247 247 248 248 248 249 249 248 248 248 248 248 247 247 247 248 248 248 248 248 248 247 247 247 247 246 246 246 245 244 243 243 243 242 242 242 242 242 242 242 242 242 241 241 241 241 241 241 241 241 241 241 240 240 240 240 240 239 240 240 240 240 240 240 240 239 239 239 238 238 238 238 238 238 238 238 238 238 238 237 236 234 232 229 227 226 224 223 222 222 222 221 221 221 222 223 224 224 223 221 219 220 221 223 226 228 230 233 235 236 237 236 236 236 235 234 234 234 235 236 236 237 237 238 237 237 237 237 237 237 237 237 237 237 237 237 237 237 237 236 236 235 234 233 233 234 235 235 235 235 235 235 235 235 235 234 234 233 232 231 231 230 229 227 224 221 219 217 214 212 211 210 209 209 208 208 208 208 208 208 208 208 208 208 208 208 208 208
 248 248 248 248 247 247 247 247 246 246 246 245 245 245 245 245 245 245 245 245 245 245 245 245 246 246 247 247 248 248 248 249 249 249 249 248 248 248 248 248 248 248 248 248 248 248 248 248 247 247 247 247 246 246 246 246 245 244 243 243 243 242 242 242 242 242 242 242 242 242 242 242 241 241 241 241 241 241 241 241 240 240 240 240 240 240 240 240 240 240 240 240 239 239 239 239 238 238 238 238 238 238 238 238 238 237 236 234 232 230 227 225 224 223 222 222 221 221 221 222 222 223 225 225 225 223 221 219 219 220 222 225 228 231 233 236 237 237 237 237 237 236 235 235 234 235 235 236 237 237 237 237 237 237 237 237 237 237 237 237 237 237 237 237 237 237 236 235 234 234 234 235 235 236 236 236 236 235 235 235 235 235 234 234 233 233 232 232 231 230 227 224 221 218 216 213 211 211 210 209 209 208 208 208 208 208 208 208 208 208 208 208 208 208 208
 248 248 248 248 248 247 247 247 246 246 245 245 245 245 245 245 245 245 245 245 245 245 246 246 246 247 247 248 248 248 249 249 249 249 249 249 248 248 248 248 248 248 248 248 248 248 248 247 247 247 247 247 246 246 246 246 246 245 244 243 243 243 242 242 242 242 242 242 242 242 242 242 242 242 241 241 241 241 241 241 240 240 240 240 240 240 240 240 240 240 240 240 239 239 239 238 238 238 238 238 238 238 238 238 237 236 234 232 230 228 226 224 223 222 221 221 221 221 222 223 224 225 226 227 227 225 222 220 220 220 222 225 228 231 234 236 237 238 238 238 238 237 236 236 235 235 235 236 236 237 237 237 237 237 237 237 237 237 237 237 237 237 237 237 237 236 236 235 234 234 235 236 236 236 236 236 236 235 235 235 235 235 235 234 234 234 233 233 232 230 227 224 221 218 215 212 211 210 210 209 209 209 208 208 208 208 208 208 208 208 208 208 208 208 208
 248 248 248 248 248 247 247 247 246 246 245 245 245 245 245 245 245 245 246 246 246 246 246 246 247 247 248 248 248 249 249 249 249 249 249 249 248 248 248 248 248 248 248 247 247 247 247 247 247 247 247 247 246 246 246 246 246 245 245 244 243 243 243 242 242 242 242 242 242 242 242 242 242 242 241 241 241 241 241 240 240 240 240 240 240 240 240 240 240 240 240 239 239 239 239 238 238 238 237 237 237 237 237 237 236 234 232 230 229 226 225 223 222 222 221 221 221 222 223 224 226 227 228 228 228 227 224 222 220 221 223 225 228 231 234 236 237 238 238 238 238 238 237 237 236 235 235 236 236 236 237 237 237 237 237 237 237 237 237 237 237 237 237 237 237 236 236 235 235 235 236 236 236 236 236 236 236 235 235 235 235 235 235 235 235 234 234 233 232 230 227 224 220 217 214 212 211 210 210 209 209 209 208 208 208 208 208 208 208 208 208 208 208 208 208
 249 248 248 248 248 247 247 247 246 246 246 246 245 245 246 246 246 246 246 246 246 246 247 247 247 248 248 248 248 249 249 249 249 249 249 249 248 248 248 248 248 247 247 247 247 247 247 247 247 247 247 246 246 246 246 246 246 246 245 244 243 243 243 242 242 242 242 242 242 242 242 242 241 241 241 241 241 240 240 240 240 239 239 239 239 239 239 239 239 239 239 239 239 238 238 238 237 237 237 237 236 236 236 235 234 232 230 229 227 225 224 223 222 221 221 221 222 223 224 226 227 228 229 229 229 228 226 223 221 222 224 226 229 232 234 236 237 238 238 238 238 238 238 237 237 236 235 235 236 236 236 237 237 237 237 237 237 237 237 237 237 237 237 237 237 236 236 235 235 235 236 236 236 236 236 236 235 235 235 235 235 235 236 235 235 235 234 233 232 230 227 223 220 217 214 212 211 210 210 209 209 209 208 208 208 208 208 208 208 208 208 208 208 208 208
 249 249 248 248 248 247 247 247 246 246 246 246 246 246 246 246 246 246 246 247 247 247 247 247 248 248 248 248 248 249 249 249 249 249 249 249 248 248 248 248 247 247 247 247 247 247 247 247 247 247 246 246 246 246 246 246 246 245 245 244 244 243 243 242 242 242 242 242 242 242 241 241 241 241 241 240 240 240 240 239 239 239 239 239 239 239 239 239 238 238 238 238 238 237 237 237 237 236 236 236 236 235 235 234 232 230 229 227 226 224 223 222 222 221 221 222 222 224 226 228 229 230 230 230 229 228 226 224 222 223 225 227 229 233 235 237 237 238 238 238 238 238 238 238 237 236 236 235 236 236 236 236 237 237 237 237 237 237 237 237 237 237 237 237 237 236 236 236 235 236 236 236 236 236 236 236 235 235 235 235 235 236 236 236 236 235 235 234 232 230 226 222 219 216 214 211 210 210 209 209 209 209 208 208 208 208 208 208 208 208 208 208 208 208 208
 249 249 248 248 248 248 247 247 247 246 246 246 246 246 246 246 247 247 247 247 247 247 248 248 248 248 248 248 249 249 249 249 249 249 249 248 248 248 248 248 247 247 247 247 247 247 247 247 247 246 246 246 246 246 246 245 245 245 245 244 243 243 243 242 242 242 242 242 241 241 241 241 240 240 240 240 239 239 239 238 238 238 238 238 238 238 238 238 238 237 237 237 237 236 236 236 236 235 235 235 234 234 233 232 230 229 228 226 225 224 223 222 222 221 222 222 224 226 228 229 231 231 231 231 230 228 226 224 223 223 225 227 229 233 235 237 238 238 238 238 238 238 238 238 237 237 236 236 236 236 236 236 236 237 237 237 237 237 237 237 237 237 237 237 237 236 236 236 236 236 236 236 236 236 236 235 235 235 235 235 235 236 236 236 236 235 235 234 232 230 226 222 218 216 213 211 210 209 209 209 209 208 208 208 208 208 208 208 208 208 208 208 208 208 208
 249 249 249 248 248 248 248 247 247 247 247 247 247 247 247 247 247 247 247 248 248 248 248 248 248 248 249 249 249 249 249 249 249 248 248 248 248 248 248 247 247 247 247 247 247 247 247 246 246 246 246 246 246 245 245 245 245 244 244 244 243 243 242 242 242 242 241 241 241 240 240 240 239 239 239 239 238 238 238 237 237 237 237 237 237 237 237 237 236 236 235 235 235 235 234 234 234 234 234 233 233 232 231 230 229 227 227 225 224 223 222 222 222 222 223 224 225 228 230 231 232 232 232 231 230 228 226 225 223 224 225 227 229 232 235 237 238 238 238 238 238 238 238 238 238 237 236 236 236 236 236 236 236 236 237 237 237 237 237 237 237 237 237 237 237 236 236 236 236 236 236 236 236 236 236 235 235 235 235 235 236 236 236 236 236 236 235 234 232 229 225 221 218 215 212 211 210 209 209 208 208 208 208 208 208 208 208 208 208 208 208 208 208 208 208
 249 249 249 249 248 248 248 248 247 247 247 247 247 247 247 248 248 248 248 248 248 248 248 248 249 249 249 249 249 249 249 248 248 248 248 248 248 248 247 247 247 247 247 247 246 246 246 246 246 246 245 245 245 245 245 244 244 244 244 243 243 242 242 242 241 241 241 240 240 240 239 239 238 238 238 237 237 237 237 236 236 236 236 236 236 236 235 235 235 234 233 233 232 232 232 232 232 232 232 232 231 230 229 228 227 226 225 224 224 223 222 222 222 223 224 225 228 230 231 232 233 232 232 231 230 228 226 225 224 223 225 226 229 232 235 237 238 238 238 238 238 238 238 238 238 237 237 236 236 236 236 236 236 236 237 237 237 237 237 237 237 237 237 237 237 236 236 236 236 236 236 236 236 236 235 235 235 235 235 235 235 236 236 236 236 236 235 234 233 229 224 220 216 213 211 210 209 209 208 208 208 208 208 208 208 208 208 208 208 208 208 208 208 208 208
 249 249 249 249 249 248 248 248 248 248 248 248 248 248 248 248 248 248 248 248 249 249 249 249 249 249 249 249 249 249 249 248 248 248 248 248 248 247 247 247 247 247 247 246 246 246 246 246 245 245 245 245 244 244 244 244 244 243 243 243 242 242 242 241 241 240 240 239 239 238 238 238 237 237 236 236 236 236 235 235 234 234 234 234 234 234 234 233 233 232 231 231 230 230 230 230 230 230 230 230 229 229 228 227 226 225 224 224 223 223 223 223 224 224 225 227 229 231 232 233 233 233 232 231 230 228 227 225 224 223 224 226 228 231 235 237 238 238 238 238 238 238 238 238 238 237 237 236 236 236 236 236 236 236 237 237 237 237 237 237 237 237 237 237 237 237 236 236 236 236 236 236 236 236 235 234 234 234 234 235 235 235 236 236 236 236 235 235 233 229 224 219 215 212 210 209 209 208 208 208 208 208 208 208 208 209 209 209 209 208 208 208 208 208 208
 249 249 249 249 249 249 249 248 248 248 248 248 248 248 249 249 249 249 249 249 249 249 249 249 249 249 249 249 249 249 248 248 248 248 248 248 247 247 247 247 247 247 246 246 246 246 245 245 245 245 244 244 244 244 243 243 243 243 242 242 242 242 241 240 240 239 238 238 238 237 237 236 236 235 235 235 234 234 234 233 233 232 232 232 232 232 232 231 231 230 229 229 228 228 228 228 228 228 228 228 227 227 226 225 225 224 224 224 224 224 224 224 225 226 227 229 231 232 233 234 234 233 232 232 230 229 227 226 224 224 224 226 228 231 234 237 238 238 238 238 238 238 238 238 238 237 237 236 236 236 236 236 236 236 236 237 237 237 237 237 237 237 237 237 237 237 237 236 236 236 236 236 236 235 235 234 233 233 233 234 234 234 235 236 236 236 235 235 233 229 223 218 214 211 210 209 208 208 208 208 208 208 208 208 208 209 209 209 209 209 208 208 208 208 208
 250 250 250 249 249 249 249 249 249 249 249 249 249 249 249 249 249 249 249 249 249 249 249 249 249 249 249 249 249 248 248 248 248 248 248 247 247 247 247 247 247 246 246 246 245 245 245 245 244 244 244 243 243 243 242 242 242 242 242 242 241 241 240 240 239 238 237 237 236 236 236 235 235 234 234 233 233 232 232 231 231 230 230 230 230 230 230 230 229 228 228 227 226 226 226 226 226 226 226 226 226 225 225 224 224 224 224 224 225 225 225 226 227 228 230 231 232 233 234 234 234 233 233 232 230 229 228 226 225 224 224 226 228 231 234 236 238 238 238 238 238 238 238 238 238 238 237 236 236 236 236 236 236 236 236 237 237 237 237 237 237 237 237 237 237 237 237 237 236 236 236 236 236 235 234 233 232 232 232 232 233 234 235 235 236 236 235 235 233 229 224 219 214 211 209 209 208 208 208 207 208 208 208 208 208 209 209 209 209 209 209 208 208 208 208
 250 250 250 250 250 250 250 249 249 249 249 249 249 249 250 250 250 250 250 250 250 250 249 249 249 249 249 249 249 248 248 248 248 248 247 247 247 247 247 247 246 246 246 245 245 245 244 244 244 243 243 243 242 242 242 241 241 241 241 241 241 240 240 239 238 237 236 236 235 235 235 234 234 233 232 232 231 231 230 230 230 230 230 229 229 229 229 228 228 227 227 226 225 225 225 225 225 225 225 224 224 224 224 224 224 225 225 225 226 226 227 228 229 230 231 232 233 234 234 234 234 233 233 232 230 229 228 227 226 225 224 225 227 230 233 236 237 238 238 238 238 238 238 238 238 238 237 237 236 236 236 236 236 236 236 236 237 237 237 237 237 238 238 238 237 237 237 237 236 236 236 236 235 234 233 232 231 230 231 231 232 233 234 235 235 236 235 234 233 230 225 219 214 211 209 208 208 208 208 207 207 208 208 208 208 209 209 209 209 209 209 209 208 208 208
 251 251 250 250 250 250 250 250 250 250 250 250 250 250 250 250 250 250 250 250 250 250 250 249 249 249 249 249 248 248 248 248 248 247 247 247 247 247 246 246 246 246 246 245 245 244 244 243 243 243 242 242 242 241 241 241 240 240 240 240 240 239 239 238 237 236 235 235 234 234 234 233 233 232 232 231 230 230 230 230 231 231 231 231 230 229 229 228 228 227 227 226 226 226 225 225 225 224 224 224 224 225 226 226 227 227 227 227 228 228 229 230 231 232 233 233 234 234 234 234 234 233 233 232 230 229 228 227 226 225 225 225 227 229 232 235 237 238 238 238 238 238 238 238 238 238 237 237 236 236 236 236 236 236 236 236 236 237 237 237 237 238 238 238 238 237 237 237 236 236 236 235 234 233 232 231 229 229 229 230 231 232 233 234 235 235 235 234 232 230 226 221 215 211 209 208 208 208 208 207 207 208 208 208 208 209 209 209 209 209 209 209 208 208 208
 251 251 251 251 251 251 251 251 251 251 250 250 250 250 251 251 251 251 251 251 250 250 250 250 249 249 249 249 248 248 248 248 247 247 247 247 247 246 246 246 246 246 245 245 244 244 243 243 243 242 242 241 241 240 240 240 239 239 239 239 239 238 238 237 236 235 235 234 234 233 233 233 233 232 232 231 231 231 231 232 232 233 233 232 231 231 230 230 229 229 229 228 227 227 226 225 225 224 224 224 225 226 227 229 229 229 229 229 230 230 231 232 232 233 233 234 234 234 235 234 234 233 233 232 231 230 229 228 227 226 225 225 226 228 230 233 236 238 238 238 238 238 238 238 238 238 237 237 237 236 236 236 236 236 236 236 236 236 236 237 237 238 238 238 238 237 237 237 236 236 235 235 234 232 231 229 228 227 227 228 229 230 232 233 234 235 234 233 232 230 227 222 216 211 209 208 208 208 208 207 207 208 208 208 209 209 209 209 209 209 209 209 209 208 208
 252 252 252 252 252 252 252 251 251 251 251 251 251 251 251 251 251 251 251 251 251 250 250 250 249 249 249 248 248 248 248 247 247 247 247 247 246 246 246 246 245 245 245 244 244 243 243 242 242 241 241 241 240 240 239 239 238 238 238 238 237 237 237 237 236 235 234 233 233 233 233 232 232 232 232 232 232 232 232 233 234 234 234 234 233 232 232 231 231 231 231 230 229 228 227 226 225 224 224 225 226 227 229 231 231 231 231 231 231 232 232 233 233 234 234 234 235 235 235 235 234 234 233 232 231 230 229 228 227 226 225 225 226 227 229 232 235 237 238 238 238 238 238 238 238 238 238 237 237 237 236 236 236 236 236 236 236 236 236 236 237 237 238 238 238 237 237 237 236 236 235 234 233 232 230 229 227 226 225 225 226 228 230 232 233 234 234 233 231 230 227 222 217 212 210 209 208 208 208 207 207 208 208 208 209 209 209 209 209 209 209 209 209 209 208
 253 252 252 252 252 252 252 252 252 252 251 251 251 251 251 251 251 251 251 251 251 250 250 250 249 249 249 248 248 248 248 247 247 247 247 246 246 246 246 245 245 245 244 244 243 243 242 242 241 241 240 240 239 239 238 238 237 237 237 237 237 236 236 236 235 234 233 233 233 233 232 232 232 233 233 233 233 233 234 234 235 235 236 235 234 234 233 233 232 232 232 231 230 229 228 226 225 224 225 225 227 229 231 232 233 233 233 233 233 233 233 234 234 234 234 235 235 235 235 235 235 234 233 232 231 231 230 228 227 226 225 225 225 226 228 231 234 236 237 238 238 238 238 238 238 238 238 238 237 237 237 237 237 236 236 236 236 235 235 235 236 237 237 238 238 237 237 237 236 235 235 234 233 232 231 230 228 226 225 224 224 225 227 229 231 232 232 232 230 229 226 222 217 213 211 209 208 208 208 207 208 208 208 208 209 209 209 209 209 209 209 209 209 209 209
 253 253 253 253 253 253 253 253 252 252 252 252 251 251 251 251 251 251 251 251 251 250 250 249 249 249 248 248 248 248 247 247 247 247 246 246 246 245 245 245 244 244 244 243 243 242 242 241 241 240 240 239 239 238 238 237 237 236 236 236 236 236 235 235 234 233 233 233 233 232 232 233 233 233 233 234 234 234 235 235 236 236 237 236 236 235 234 234 233 233 232 232 231 229 228 227 225 225 225 227 229 231 233 234 234 235 234 234 234 234 234 234 235 235 235 235 235 235 235 235 235 234 234 233 232 231 230 229 227 226 225 225 225 226 227 229 233 235 237 238 238 238 238 238 238 238 238 238 238 237 237 237 237 237 236 236 235 235 234 234 235 236 237 237 237 237 237 236 236 236 235 234 233 232 232 231 230 228 227 225 223 223 224 226 228 229 230 230 229 227 225 221 217 214 211 210 209 208 208 208 208 208 208 208 209 209 209 209 209 209 209 209 209 209 209
 254 254 254 254 254 254 253 253 253 253 252 252 252 252 251 251 251 251 251 251 250 250 250 249 249 248 248 248 248 247 247 247 247 246 246 246 245 245 245 244 244 243 243 242 242 241 241 240 240 240 239 239 238 238 237 237 236 236 236 235 235 235 235 234 233 233 233 233 233 233 233 234 234 234 234 235 235 235 236 236 237 237 237 237 236 236 235 234 234 233 232 231 231 229 228 227 225 225 226 228 230 232 234 235 235 236 235 235 235 235 235 235 235 235 235 235 235 235 236 236 235 235 234 233 232 231 231 229 227 226 226 226 226 226 226 228 231 234 236 237 238 238 238 238 238 238 238 238 238 238 237 237 237 237 236 236 235 234 234 233 234 235 236 237 237 237 237 236 236 236 235 235 234 233 233 232 231 230 229 227 224 222 221 222 224 226 227 227 226 225 223 220 217 214 211 210 209 208 208 208 208 208 208 208 209 209 209 209 209 209 209 209 209 209 209
 255 255 255 255 255 254 254 254 253 253 252 252 252 252 251 251 251 251 251 250 250 250 249 249 249 248 248 248 247 247 247 247 246 246 246 245 245 244 244 244 243 243 242 242 241 241 240 240 240 239 239 238 238 237 237 237 236 236 235 235 235 235 234 234 233 233 233 233 233 234 234 235 235 235 235 236 236 236 237 237 237 238 238 237 237 236 235 235 234 233 232 231 230 229 227 226 225 225 227 229 231 233 234 236 236 236 236 236 236 236 236 236 236 236 235 236 236 236 236 236 236 235 234 233 232 231 230 229 228 228 227 227 226 226 226 227 229 232 235 237 238 238 238 238 238 238 238 238 238 238 238 237 237 237 237 236 236 235 233 232 232 233 235 236 236 237 237 236 236 236 236 235 235 234 234 233 233 232 230 228 225 222 220 219 220 222 223 224 224 224 222 219 216 214 211 210 209 209 208 208 208 208 208 209 209 209 209 209 209 209 209 209 209 209 209
 255 255 255 255 255 255 255 254 254 253 253 252 252 252 251 251 251 251 251 250 250 249 249 249 248 248 248 247 247 247 246 246 246 245 245 245 244 244 243 243 243 242 242 241 241 240 240 240 239 239 238 238 237 237 237 236 236 236 236 235 235 235 235 234 234 234 234 234 234 235 236 236 237 237 237 237 237 237 237 238 238 238 238 238 237 236 235 235 234 232 231 230 229 228 227 226 225 226 227 230 232 233 235 236 237 237 237 237 237 236 236 236 236 236 236 236 236 236 236 236 236 235 234 233 232 231 230 230 229 229 229 228 228 227 226 227 229 231 233 235 237 238 238 238 238 238 238 238 238 238 238 237 237 237 237 236 236 235 234 232 231 231 233 235 236 236 236 236 236 236 236 235 235 235 234 234 233 233 231 229 226 224 221 219 218 219 220 221 222 221 220 218 215 213 211 210 209 209 209 208 208 208 209 209 209 209 209 209 209 209 209 209 209 209 209
 256 256 256 256 256 255 255 254 254 253 253 252 252 252 251 251 251 251 250 250 250 249 249 248 248 247 247 247 247 246 246 246 245 245 245 244 244 243 243 242 242 241 241 241 240 240 240 239 239 238 238 237 237 236 236 236 236 236 236 235 235 235 235 235 235 235 234 235 235 235 236 237 237 237 237 238 238 238 238 238 238 238 238 238 237 236 235 234 233 232 231 230 229 227 226 225 225 226 228 230 232 234 235 236 237 237 238 237 237 237 237 237 237 237 237 236 236 236 236 236 236 235 234 233 232 231 230 230 230 230 230 229 229 228 227 227 228 229 232 234 236 238 238 239 239 238 238 238 239 238 238 238 237 237 237 237 236 236 234 233 231 230 231 233 234 235 236 236 236 236 236 236 235 235 235 234 234 233 232 230 228 226 222 219 218 217 217 218 219 219 218 216 214 212 211 210 209 209 209 209 209 209 209 209 209 209 209 209 209 209 209 209 209 209 209
 256 256 256 256 256 256 255 255 254 254 253 252 252 252 251 251 251 250 250 250 249 249 248 248 247 247 247 246 246 246 246 245 245 245 244 244 243 243 242 242 241 241 241 240 240 240 239 239 239 238 238 237 237 236 236 236 236 236 235 235 235 235 236 236 236 235 235 235 236 236 237 237 238 238 238 238 238 239 239 239 238 238 238 238 237 236 235 234 233 232 230 230 229 228 226 226 225 226 228 230 232 234 235 237 237 238 238 238 238 238 238 237 237 237 237 237 237 237 236 236 235 235 234 233 232 232 231 231 231 231 231 230 230 229 228 228 228 229 231 233 235 237 238 239 239 239 239 238 239 238 238 238 237 237 237 237 237 236 235 234 232 230 230 230 232 234 235 235 236 236 236 236 235 235 235 235 234 233 232 231 230 227 223 220 218 216 215 215 215 216 215 214 213 211 210 210 209 209 209 209 209 209 209 209 209 209 209 209 209 209 209 209 209 209 209
 257 256 256 256 256 256 255 255 254 254 253 252 252 252 251 251 250 250 250 249 249 248 248 247 247 247 246 246 246 245 245 245 245 244 244 243 243 242 242 241 241 241 240 240 240 240 239 239 238 238 237 237 236 236 236 236 236 236 235 236 236 236 236 236 236 236 236 236 236 237 237 238 238 239 239 239 239 239 239 239 239 238 238 237 237 236 234 233 232 231 230 230 229 229 228 227 225 226 228 230 232 234 235 236 237 238 238 238 238 238 238 238 238 238 237 237 237 237 236 236 235 235 234 233 233 232 232 232 232 232 232 231 231 230 229 229 229 229 230 232 234 236 238 238 239 239 239 239 239 239 238 238 237 237 237 237 237 236 236 235 233 231 229 228 229 231 233 234 235 235 235 235 235 235 235 235 234 233 233 232 230 228 224 221 218 216 213 212 212 212 212 212 211 211 210 210 210 209 209 209 209 209 209 209 209 209 209 209 209 209 209 209 209 209 209
 257 257 256 256 256 256 255 255 254 254 253 253 252 251 251 250 250 250 249 249 249 248 247 247 247 246 246 246 245 245 245 245 244 244 243 243 242 242 241 241 241 240 240 240 240 240 239 239 238 238 237 237 236 236 236 236 236 236 236 236 236 236 236 237 237 237 237 237 237 237 238 238 239 239 239 239 239 239 239 239 239 238 238 237 236 235 233 231 231 230 230 230 230 230 230 228 226 226 228 230 232 234 235 236 237 238 238 239 239 239 238 238 238 238 238 237 237 237 236 236 235 234 234 234 233 233 233 233 233 232 232 232 231 231 230 229 229 229 230 231 233 236 237 238 239 239 239 239 239 239 238 238 237 237 237 237 237 237 236 235 233 231 229 226 227 228 230 232 233 234 234 234 234 234 234 234 234 233 233 232 230 227 224 221 218 215 212 210 210 210 210 210 210 210 210 210 210 209 209 209 209 209 209 209 209 209 209 209 209 209 209 209 209 209 209
 257 257 256 256 256 255 255 255 254 254 253 252 252 251 251 250 250 250 249 249 248 248 247 247 246 246 246 245 245 245 245 244 244 244 243 243 242 242 241 241 241 241 240 240 240 240 239 239 238 238 237 237 236 236 236 236 236 236 236 236 236 236 237 237 237 237 237 238 238 238 238 239 239 239 239 240 240 240 239 239 239 238 237 236 235 234 232 231 230 230 231 231 231 231 231 229 227 227 228 230 232 233 235 236 237 238 239 239 239 239 239 239 239 238 238 237 237 236 236 235 235 234 234 234 234 234 233 233 233 233 233 232 232 231 231 230 229 229 230 231 233 235 237 238 239 239 239 239 239 239 238 238 237 237 237 237 237 237 236 235 233 231 229 227 226 226 227 229 230 231 232 232 233 233 233 233 233 232 232 230 228 226 223 220 216 213 211 209 209 209 210 210 210 210 210 210 210 209 209 209 209 209 209 209 209 209 209 209 209 209 209 209 209 209 209
 257 256 256 256 256 255 255 255 254 254 253 252 252 251 251 250 250 249 249 249 248 247 247 246 246 246 245 245 245 245 245 244 244 243 243 242 242 241 241 241 241 241 241 240 240 240 239 239 238 238 238 237 237 236 236 236 236 236 236 236 236 237 237 237 238 238 238 238 238 239 239 239 239 240 240 240 240 240 240 239 239 238 237 236 235 234 232 231 231 231 231 231 231 231 231 230 228 228 229 230 231 233 234 236 237 238 239 239 239 239 239 239 239 238 238 237 237 236 235 235 235 235 234 234 234 234 234 234 234 234 233 233 232 232 231 230 230 229 230 231 232 234 236 238 239 239 239 239 239 239 238 238 237 237 237 237 236 236 236 234 232 230 228 227 225 224 225 226 227 228 229 230 231 231 231 231 231 231 230 228 226 224 221 218 214 212 210 209 209 210 211 211 211 210 210 210 210 209 209 209 209 209 209 209 209 209 209 209 209 209 209 209 209 209 209
 257 256 256 256 256 255 255 255 254 254 253 252 252 251 251 250 250 249 249 248 248 247 247 246 246 245 245 245 245 245 244 244 244 243 243 242 242 242 241 241 241 241 241 241 240 240 240 239 239 238 238 237 237 236 236 236 236 236 236 236 236 237 237 238 238 238 239 239 239 239 239 239 240 240 240 240 240 240 240 239 239 238 237 237 236 235 234 233 232 232 232 232 231 231 231 230 228 228 229 230 231 233 234 236 237 238 239 239 239 240 240 239 239 238 238 237 236 236 235 235 235 235 235 235 235 235 235 235 234 234 234 233 233 232 231 231 230 230 230 231 232 234 236 238 239 239 239 239 239 239 238 238 237 237 237 236 236 236 235 233 231 229 228 227 225 224 223 223 224 225 225 226 228 228 229 229 229 228 227 225 223 221 218 215 212 211 210 211 211 212 212 212 212 211 210 210 210 209 209 209 209 209 209 209 209 209 209 209 209 209 209 209 209 209 209
 257 256 256 256 256 255 255 255 254 254 253 252 252 251 251 250 250 249 249 248 248 247 247 246 246 245 245 245 245 244 244 244 244 243 243 243 242 242 242 241 241 241 241 241 241 240 240 239 239 238 238 237 237 237 236 236 236 236 236 236 237 237 237 238 238 239 239 239 239 240 240 240 240 240 240 240 240 240 240 240 239 238 238 237 237 236 235 235 234 233 232 232 232 231 231 230 229 229 229 230 231 233 234 236 237 238 239 239 240 240 240 239 239 238 238 236 236 235 235 236 236 235 235 235 235 236 235 235 235 234 234 233 233 232 232 231 230 230 230 231 233 235 236 238 239 239 239 239 239 239 238 238 237 237 236 236 236 235 234 232 230 229 228 227 225 224 222 221 221 221 221 222 224 225 226 226 226 226 224 223 220 218 215 212 211 211 211 212 214 214 214 214 213 212 211 210 209 209 209 209 209 209 209 209 209 209 209 209 209 209 209 209 209 209 209
 257 256 256 256 256 255 255 255 254 253 253 252 252 251 251 250 250 249 249 248 248 247 247 246 246 245 245 245 245 244 244 244 244 243 243 243 242 242 242 242 242 242 241 241 241 240 240 239 239 239 238 238 237 237 237 237 237 237 237 237 237 237 238 238 239 239 240 240 240 240 240 240 240 240 240 240 240 240 240 240 239 239 238 238 237 237 236 236 235 234 233 232 232 231 231 230 229 229 230 230 231 233 234 236 237 238 239 239 240 240 240 240 239 238 237 236 236 236 236 236 236 236 236 236 236 236 236 235 235 235 234 234 233 232 232 231 230 230 230 231 233 235 237 238 239 239 239 239 239 238 238 238 237 237 236 236 235 235 233 232 231 230 230 229 227 226 224 222 221 220 219 220 221 222 223 223 224 223 222 220 218 215 212 211 211 212 213 215 216 217 217 216 214 213 211 210 209 209 209 209 209 209 209 209 209 209 209 209 209 209 209 209 209 209 209
 257 257 256 256 256 255 255 254 254 253 253 252 252 251 251 250 250 249 248 248 247 247 247 246 246 245 245 245 245 245 244 244 244 243 243 243 243 242 242 242 242 242 242 241 241 240 240 240 239 239 238 238 237 237 237 237 237 237 237 237 237 238 238 239 240 240 240 240 241 241 241 241 241 241 241 241 241 240 240 240 239 239 238 238 238 237 237 236 235 235 234 233 232 231 230 230 229 229 230 230 231 233 234 236 237 238 239 240 240 240 240 240 239 238 237 237 236 236 236 236 236 236 236 236 236 236 236 236 235 235 234 234 233 233 232 231 231 230 230 231 233 235 237 238 239 239 239 239 239 238 238 237 237 237 236 236 236 235 234 233 233 233 233 232 231 229 227 226 224 222 220 219 218 219 220 221 221 221 219 217 215 213 211 211 212 214 215 217 219 219 218 217 216 214 212 210 209 208 208 209 209 209 209 209 210 210 210 209 209 209 209 209 209 209 209
 257 257 256 256 256 255 255 254 254 253 252 252 251 251 250 250 249 249 248 248 248 247 247 246 246 246 245 245 245 245 245 244 244 244 243 243 243 243 243 243 242 242 242 242 241 241 240 240 239 239 238 238 238 237 237 237 237 237 238 238 238 238 239 240 240 241 241 241 241 241 241 241 241 241 241 241 241 241 240 240 240 239 239 238 238 237 237 236 236 235 234 233 232 231 230 230 230 230 230 231 232 233 234 236 238 239 240 240 240 240 240 239 239 238 237 237 236 236 236 236 236 236 236 236 236 236 236 236 235 235 234 234 233 233 232 231 230 230 231 232 234 236 238 239 239 239 239 239 239 238 238 237 237 236 236 236 236 236 236 235 235 235 235 234 233 231 230 228 227 225 222 220 219 218 217 217 218 218 217 215 213 212 212 213 214 216 218 220 222 221 220 218 217 215 212 210 208 208 208 209 209 209 209 210 210 210 210 210 209 209 209 209 209 209 209
 256 256 256 256 255 255 255 254 254 253 252 252 251 251 250 250 249 249 248 248 248 247 247 246 246 246 246 245 245 245 245 244 244 244 244 244 243 243 243 243 243 243 242 242 242 241 241 240 240 239 238 238 238 238 238 238 238 238 238 238 238 239 240 241 241 242 242 242 242 242 242 242 242 242 242 241 241 241 241 240 240 239 239 239 238 238 237 236 236 235 234 233 232 231 230 230 230 230 230 231 232 234 235 237 239 240 240 240 240 240 240 239 239 238 238 237 237 236 236 236 236 236 236 236 236 236 236 236 235 235 234 234 233 233 232 231 230 230 231 233 235 237 238 239 239 239 239 239 238 238 237 237 237 236 236 236 236 236 236 236 236 236 236 235 234 233 232 231 229 227 225 222 220 218 216 216 216 216 214 213 212 212 213 215 216 218 220 223 224 223 221 219 217 215 212 210 208 208 208 209 209 209 210 210 210 210 210 210 210 209 209 209 209 209 209
 256 256 256 256 255 255 254 254 253 253 252 252 251 251 250 250 249 249 249 248 248 247 247 247 246 246 246 246 246 245 245 245 245 244 244 244 244 243 243 243 243 243 243 243 242 242 241 240 240 239 238 238 238 238 238 238 238 238 238 238 239 240 241 242 243 243 243 243 243 243 243 242 242 242 242 242 241 241 241 240 240 240 239 239 238 238 237 236 236 235 234 233 232 231 230 230 230 230 231 232 233 235 236 238 240 241 241 241 241 240 240 239 239 238 237 237 237 237 236 236 236 237 237 237 236 236 236 236 235 235 234 234 233 232 232 231 230 230 232 234 236 238 239 239 239 239 239 239 238 238 237 237 236 236 236 236 236 236 237 237 237 236 236 235 234 233 232 232 231 229 227 225 222 219 217 215 214 214 213 212 212 213 215 217 218 220 223 225 226 224 222 220 217 215 212 210 208 208 208 209 209 209 210 210 210 210 210 210 210 210 209 209 209 209 209
 256 256 256 255 255 254 254 254 253 253 252 252 251 251 250 250 249 249 249 248 248 248 247 247 247 246 246 246 246 246 245 245 245 245 244 244 244 244 244 244 244 243 243 243 243 242 242 241 240 239 239 238 238 238 238 238 238 238 238 239 240 242 243 244 244 244 244 244 243 243 243 243 243 243 242 242 242 241 241 240 240 240 239 239 238 238 237 236 236 235 234 233 232 231 230 230 230 231 232 233 234 236 238 239 241 241 241 241 241 240 240 239 238 238 237 237 237 237 236 237 237 237 237 237 236 236 236 236 235 235 234 234 233 232 232 231 230 231 233 235 237 238 238 239 239 239 239 239 238 238 237 237 236 236 236 236 236 236 237 237 236 236 235 234 234 233 232 232 231 230 228 227 224 221 218 216 214 213 212 212 213 214 217 220 221 223 225 227 226 224 222 220 217 215 212 210 208 208 208 208 209 209 210 210 210 210 210 210 210 210 209 209 209 209 209
 255 255 255 254 254 254 254 253 253 253 252 252 252 251 251 250 250 249 249 249 248 248 248 247 247 247 247 246 246 246 246 246 245 245 245 244 244 244 244 244 244 244 244 243 243 243 242 241 240 239 239 238 238 238 238 238 238 239 239 240 242 244 245 245 245 245 245 244 244 244 244 243 243 243 243 242 242 241 241 240 240 240 239 239 238 238 237 236 236 235 234 233 232 231 230 230 231 231 233 234 236 237 239 240 241 242 242 242 241 241 240 239 238 238 237 237 237 237 236 237 237 237 237 237 236 236 236 236 235 235 234 233 233 232 232 231 230 231 233 236 238 238 238 239 239 239 239 239 238 238 237 237 236 236 236 236 236 236 236 236 235 235 234 233 232 232 231 231 230 229 228 227 225 222 219 216 214 213 212 212 214 217 220 223 225 226 227 228 227 225 222 220 217 215 212 209 208 208 208 208 209 209 210 210 210 210 210 210 210 210 209 209 209 209 209
 254 254 254 254 253 253 253 253 253 253 253 252 252 252 251 250 250 250 249 249 249 249 248 248 248 247 247 247 247 246 246 246 246 245 245 245 245 244 244 244 244 244 244 244 244 243 243 242 240 239 239 238 238 238 238 238 238 239 239 241 243 245 246 246 246 246 245 245 245 244 244 244 244 243 243 242 242 241 241 240 240 240 239 239 238 238 237 236 235 234 233 233 232 231 230 231 231 232 234 235 237 239 240 241 242 242 242 242 241 240 240 239 238 238 237 237 237 236 236 237 237 237 237 237 236 236 236 236 235 235 234 233 233 232 231 231 231 231 234 236 238 238 238 239 239 239 239 238 238 238 237 237 236 236 236 236 236 236 236 235 234 233 232 232 231 230 230 229 229 228 227 226 224 222 219 217 215 213 212 213 215 219 223 226 227 228 229 230 228 225 222 219 217 215 212 209 208 208 208 209 209 209 210 210 210 210 210 210 210 210 209 209 209 209 209
 253 253 253 252 252 252 252 253 253 253 253 253 252 252 252 251 250 250 250 250 249 249 249 248 248 248 247 247 247 247 246 246 246 246 245 245 245 245 244 244 244 244 244 244 244 244 243 242 240 239 238 238 238 238 238 238 239 239 239 241 244 246 247 247 247 246 246 246 245 245 245 244 244 243 243 242 242 241 241 241 240 240 239 239 238 237 237 236 235 234 233 232 232 231 231 231 232 233 235 237 238 240 241 242 242 242 242 241 241 240 239 238 238 237 237 237 237 236 236 236 237 236 236 236 236 236 236 236 235 234 234 233 233 232 231 231 231 232 234 236 238 238 238 238 239 239 239 238 238 237 237 237 236 236 236 236 235 235 234 233 232 231 231 230 230 229 228 227 227 227 226 225 223 221 219 216 214 213 212 214 216 221 225 227 229 229 230 230 228 225 221 219 217 215 211 209 208 208 208 209 209 209 210 210 210 210 210 210 210 210 209 209 209 209 209
 251 252 252 251 251 251 252 252 253 253 253 253 253 252 252 251 251 251 250 250 250 249 249 249 248 248 248 247 247 247 247 246 246 246 246 245 245 245 245 245 245 245 245 244 244 244 243 242 241 239 239 238 238 238 239 239 239 239 240 242 244 246 247 247 247 247 246 246 246 245 245 245 244 243 243 242 242 241 241 241 240 240 239 239 238 237 237 236 235 234 233 233 232 232 232 232 233 234 236 238 239 241 242 242 242 242 242 241 240 240 239 238 237 237 237 237 236 236 236 236 236 236 236 236 236 236 236 235 235 234 234 233 232 232 231 231 231 232 234 236 237 238 238 238 238 239 239 238 238 237 237 237 236 236 236 235 235 234 233 231 230 230 230 230 229 228 227 226 225 225 224 223 221 219 217 215 214 213 213 214 217 222 226 229 230 230 231 231 229 224 221 219 217 214 211 209 208 208 208 209 209 209 210 210 210 210 210 210 210 210 210 209 209 209 209
 250 250 250 250 250 250 251 252 252 253 253 253 253 252 252 252 252 251 251 251 250 250 249 249 249 248 248 248 247 247 247 247 246 246 246 246 245 245 245 245 245 245 245 245 244 244 244 243 241 240 239 239 238 238 239 239 239 240 240 242 244 246 247 247 247 247 247 246 246 246 245 245 244 243 242 242 242 241 241 241 240 240 239 238 238 237 236 235 235 234 233 233 232 232 233 233 234 236 237 239 241 242 242 242 242 242 241 241 240 239 238 237 237 236 236 236 236 236 236 236 236 236 236 236 236 236 235 235 235 234 234 233 233 232 232 232 232 233 234 236 237 238 238 238 239 239 238 238 238 237 237 237 236 236 236 235 235 234 233 231 231 231 230 230 229 228 226 225 225 223 222 221 220 218 216 214 213 213 213 214 217 222 227 230 231 231 232 231 229 224 220 219 217 214 211 209 208 208 208 209 209 209 210 210 210 210 210 210 210 210 210 210 210 209 209
 249 249 249 249 249 250 250 251 252 252 253 253 253 252 252 252 252 251 251 251 251 250 250 249 249 248 248 248 248 247 247 247 247 246 246 246 246 246 245 245 245 245 245 245 245 244 244 243 242 241 239 239 239 239 239 240 240 240 241 243 244 246 247 247 247 247 247 246 246 246 245 244 244 243 242 242 241 241 240 240 240 239 239 238 238 237 236 235 234 234 233 233 233 233 234 235 236 237 239 240 241 242 242 242 242 242 241 240 239 238 238 237 236 236 236 236 236 236 236 236 236 236 236 236 235 235 235 235 234 234 234 233 233 232 232 232 233 233 234 235 237 237 238 238 238 239 238 238 238 237 237 237 237 236 236 236 235 234 233 232 232 231 231 231 230 228 227 226 224 223 221 220 219 217 215 213 213 212 212 214 217 221 227 230 232 232 232 231 228 224 220 219 217 214 211 209 208 208 208 209 209 209 210 210 210 210 210 210 210 210 210 210 210 210 210
 248 248 248 249 249 249 250 251 251 252 252 253 253 252 252 252 252 252 251 251 251 250 250 249 249 249 248 248 248 248 247 247 247 247 246 246 246 246 246 246 246 245 245 245 245 244 244 243 242 241 240 240 239 240 240 240 241 241 242 243 244 245 246 246 246 246 246 246 246 245 245 244 243 242 242 241 241 240 240 240 240 239 238 238 237 236 236 235 234 234 233 233 234 234 235 236 237 239 240 241 242 242 243 242 242 241 240 239 238 238 237 237 236 236 236 236 236 236 236 236 236 235 235 235 235 235 235 235 234 234 234 233 233 233 233 233 233 234 234 235 236 237 238 238 238 238 238 238 238 237 237 237 237 236 236 236 236 235 235 234 233 232 232 231 230 229 228 226 224 222 221 219 218 217 215 213 213 213 213 213 216 220 226 230 232 232 232 230 227 223 220 218 217 214 211 210 208 209 209 209 209 209 210 210 210 210 210 210 210 210 210 210 210 210 210
 247 247 248 248 248 249 249 250 251 252 252 252 252 252 252 252 252 252 251 251 251 250 250 250 249 249 249 248 248 248 247 247 247 247 247 247 246 246 246 246 246 246 246 245 245 245 244 243 243 242 241 241 240 240 241 241 241 242 243 243 244 245 245 246 245 245 245 245 245 245 244 243 243 242 241 241 240 240 240 239 239 239 238 238 237 236 235 235 234 234 233 234 234 235 236 237 238 240 241 242 242 243 243 242 241 240 239 238 238 237 237 236 236 236 236 236 236 236 236 236 235 235 235 235 235 235 235 235 234 234 234 234 233 233 233 233 233 234 234 235 236 237 237 238 238 238 238 238 238 237 237 237 237 236 236 236 236 236 235 235 234 233 232 232 231 229 228 226 224 222 220 218 217 217 216 215 214 214 213 213 215 219 224 229 232 232 231 229 226 222 220 218 216 213 211 210 209 209 209 209 209 209 210 210 210 210 210 210 210 210 210 210 210 210 210
 246 246 247 247 248 249 249 250 251 251 252 252 252 252 252 252 252 251 251 251 251 250 250 250 249 249 249 248 248 248 248 247 247 247 247 247 247 247 247 246 246 246 246 246 245 245 244 244 243 242 242 241 241 241 241 242 242 243 243 244 244 245 245 245 244 244 244 244 244 243 243 243 242 242 241 240 240 240 239 239 239 238 238 237 237 236 235 235 234 234 234 234 235 236 237 238 239 240 242 242 243 243 243 242 241 240 239 238 237 237 237 236 236 236 236 236 236 236 236 235 235 235 235 235 235 235 235 235 234 234 234 234 234 234 234 234 234 234 235 235 236 236 237 238 238 238 238 238 238 238 237 237 237 237 236 236 236 236 236 235 234 233 233 232 230 229 227 225 223 221 219 219 218 218 218 218 217 216 214 213 215 217 222 227 231 232 231 228 225 221 219 218 216 213 211 210 210 209 209 209 209 209 210 210 210 210 210 210 210 210 210 210 210 210 210
 245 246 246 247 248 249 249 250 251 251 252 252 252 252 252 252 252 251 251 251 250 250 250 250 249 249 249 248 248 248 248 248 247 247 247 247 247 247 247 247 247 247 246 246 246 245 244 244 243 243 243 242 242 242 242 242 243 243 243 244 244 244 244 244 243 243 243 242 242 242 242 242 241 241 241 240 240 239 239 238 238 238 237 237 236 236 235 235 234 234 234 235 236 237 238 239 240 241 242 243 243 243 242 242 241 239 238 237 237 237 237 236 236 236 236 236 236 236 235 235 235 235 235 235 235 235 235 235 235 235 234 234 234 234 234 234 234 234 235 235 236 236 237 238 238 238 238 238 238 238 237 237 237 237 237 236 236 236 235 235 234 233 232 231 229 227 225 223 221 220 220 220 220 220 220 221 220 218 216 214 214 216 221 226 230 231 231 228 224 221 219 217 215 212 211 210 210 210 210 210 210 210 210 210 210 210 210 210 210 210 210 210 210 210 210
 245 245 246 247 248 249 250 250 251 251 251 251 251 251 251 251 251 251 251 251 250 250 250 250 249 249 249 248 248 248 248 248 248 247 247 247 247 247 247 247 247 247 247 246 246 245 245 244 244 243 243 243 243 243 243 243 243 244 244 244 244 244 243 243 243 242 242 241 241 241 241 241 241 241 240 240 240 239 239 238 238 237 237 236 236 236 235 235 234 234 235 236 237 238 239 240 241 242 242 243 243 243 242 242 240 239 238 237 237 237 237 237 237 237 237 237 236 235 235 235 235 235 235 235 235 235 235 235 235 235 235 235 235 234 235 235 235 235 235 235 236 237 238 238 238 238 238 238 238 238 238 238 237 237 237 236 236 235 234 234 233 232 232 230 227 226 224 223 222 221 222 222 223 223 223 223 222 220 218 215 214 216 221 226 230 232 231 228 224 220 219 217 215 212 211 211 210 210 210 210 210 210 210 210 210 210 210 210 210 210 210 210 210 210 210
 245 245 246 246 247 248 249 250 251 251 251 251 251 251 251 251 251 251 251 250 250 250 250 250 249 249 249 248 248 248 248 248 248 248 248 248 248 248 247 247 247 247 247 247 246 246 245 244 244 244 244 243 243 244 244 244 244 244 244 244 244 244 243 243 242 241 241 240 240 240 240 240 240 240 240 240 239 239 238 238 237 237 236 236 236 235 235 235 235 235 236 237 238 239 240 241 242 242 243 243 243 243 242 241 240 239 238 238 238 238 238 238 238 238 237 237 236 236 235 235 235 235 235 236 236 236 236 236 236 236 236 235 235 235 235 235 235 236 236 236 237 237 238 238 238 238 238 238 238 238 238 238 238 237 236 236 235 235 234 233 232 231 230 228 227 226 226 226 226 226 227 227 227 227 226 225 223 221 218 216 214 216 220 226 230 232 231 228 223 220 218 217 215 213 212 211 211 210 210 210 210 210 210 210 210 210 210 210 210 210 210 210 210 210 210
 245 245 246 246 247 248 249 250 251 251 251 250 251 251 251 251 251 251 250 250 250 250 250 249 249 249 249 248 248 248 248 248 248 248 248 248 248 248 248 248 248 247 247 247 247 246 245 245 244 244 244 244 244 244 244 244 244 244 244 244 244 243 243 242 242 241 240 240 240 240 240 240 240 240 240 240 239 239 238 237 237 236 236 236 235 235 235 235 236 236 237 238 239 240 241 242 242 243 243 243 243 242 242 241 240 239 239 239 239 239 239 239 239 239 238 237 237 236 236 236 236 236 236 236 236 236 237 236 236 236 236 236 235 235 235 236 236 236 237 237 238 238 239 239 239 239 238 238 238 238 238 238 238 237 236 235 235 234 233 232 231 230 229 229 230 230 230 230 231 231 232 232 232 231 229 227 225 222 219 216 215 216 221 227 231 233 232 228 224 220 218 217 216 214 213 212 211 211 210 210 210 210 210 210 210 210 210 210 210 210 210 210 210 210 210
 246 246 246 246 247 248 249 250 250 250 250 250 250 250 250 250 250 250 250 250 250 250 250 249 249 249 249 249 248 248 248 248 248 248 248 248 248 248 248 248 248 248 248 247 247 246 246 245 245 245 245 245 245 245 245 245 245 245 245 244 244 244 243 242 242 241 240 240 240 240 240 240 240 240 240 239 239 238 238 237 237 236 236 236 235 235 236 236 237 238 239 240 240 241 242 242 243 243 243 243 243 242 242 241 241 240 240 240 241 241 241 241 240 239 239 238 237 236 236 236 236 236 236 237 237 237 237 237 237 237 236 236 236 236 236 236 237 237 238 239 239 239 239 239 239 239 239 239 239 239 239 239 238 237 236 236 235 235 234 232 232 232 232 233 234 234 234 234 234 235 236 236 236 235 232 229 226 223 220 216 215 217 221 228 232 233 232 229 224 220 218 217 216 215 214 213 212 211 210 210 210 210 210 210 210 210 210 210 210 210 210 210 210 210 210
 246 246 247 247 247 248 248 249 249 249 249 249 249 250 250 250 250 250 250 250 250 250 250 249 249 249 249 249 248 248 248 248 248 248 248 248 248 248 248 248 248 248 248 248 247 247 246 246 246 245 245 245 245 246 246 246 245 245 245 245 244 244 243 242 242 241 241 240 240 240 240 240 240 240 239 239 239 238 238 237 237 236 236 236 236 236 236 237 238 239 240 241 242 242 243 243 243 243 243 243 243 242 242 242 242 241 241 242 242 242 242 241 241 240 239 238 237 236 236 236 236 237 237 237 238 238 238 238 238 237 237 236 236 236 236 237 237 238 239 240 240 240 240 240 239 239 239 239 239 239 239 239 239 238 237 236 236 236 235 235 235 235 235 236 237 237 237 237 237 237 237 237 237 236 233 230 227 223 219 216 215 217 222 229 232 233 232 229 224 221 219 217 216 215 214 213 212 211 211 210 210 210 210 210 210 210 210 210 210 210 210 210 210 210 210
 246 247 247 247 247 248 248 248 248 248 249 249 249 249 249 249 250 250 250 250 250 250 249 249 249 249 249 249 248 248 248 248 248 248 248 249 249 249 248 248 248 248 248 248 248 247 247 247 246 246 246 246 246 246 246 246 246 246 245 245 245 244 243 243 242 241 241 241 240 240 240 240 240 240 239 239 239 238 238 237 237 236 236 236 236 237 237 238 239 240 242 243 243 244 244 244 244 244 243 243 243 243 242 242 242 242 242 242 243 242 242 242 241 240 239 238 237 237 236 236 237 237 238 238 239 239 239 239 238 238 237 237 237 236 237 237 238 239 240 241 241 241 241 240 240 239 239 239 239 239 239 239 239 238 238 237 237 237 236 236 236 236 237 238 238 238 238 238 238 238 238 238 237 236 234 230 226 223 219 215 215 218 224 230 233 234 232 229 225 221 219 218 217 216 215 214 213 212 211 210 210 210 210 210 210 210 210 210 210 210 210 210 210 210 210
 247 247 247 247 247 247 247 247 247 247 248 248 248 248 249 249 249 249 249 249 249 249 249 249 249 249 249 249 249 249 248 249 249 249 249 249 249 249 249 249 249 248 248 248 248 248 248 247 247 247 246 246 246 246 246 246 246 246 246 245 245 244 244 243 242 242 241 241 241 240 240 240 240 240 239 239 238 238 238 237 237 237 237 237 237 238 239 240 240 242 243 244 244 245 244 244 244 244 243 243 243 243 243 243 243 243 243 243 243 243 242 241 241 240 239 238 237 237 237 237 237 237 238 239 239 240 240 239 239 238 238 237 237 237 237 237 238 240 241 241 241 241 241 240 240 240 239 239 239 239 239 239 239 239 239 238 238 238 237 237 237 237 238 238 239 238 238 238 238 238 238 238 237 236 233 229 225 221 217 215 215 219 225 230 233 234 232 229 225 222 220 218 217 216 215 214 213 212 211 210 210 210 210 210 210 210 210 210 210 210 210 210 210 210 210
 247 247 247 247 247 247 247 247 247 247 247 247 247 248 248 249 249 249 249 249 249 249 249 249 249 249 249 249 249 249 249 249 249 249 249 249 249 249 249 249 249 249 249 249 249 248 248 248 248 248 247 247 247 247 247 247 247 246 246 246 245 245 244 243 243 242 242 241 241 241 241 240 240 240 239 239 238 238 238 237 237 237 237 237 238 239 240 241 242 243 244 245 245 245 245 245 244 244 244 243 243 243 243 243 243 243 243 243 243 243 242 241 240 240 239 238 237 237 237 237 237 238 239 239 240 240 241 240 240 239 238 238 238 238 238 238 239 240 241 242 242 241 241 241 240 240 240 239 239 239 239 239 239 239 239 239 239 239 238 238 238 238 238 239 239 239 239 238 238 238 238 237 236 234 232 228 224 219 216 215 217 220 226 231 233 234 232 229 225 222 220 219 217 216 215 214 213 212 211 211 210 210 210 210 210 210 210 210 210 210 210 210 210 210 210
 247 247 247 247 247 247 246 246 246 246 246 246 247 247 248 248 248 249 249 249 249 249 249 249 249 249 249 249 249 249 249 249 249 249 249 249 249 249 249 249 249 249 249 249 249 249 249 249 249 249 248 248 248 247 247 247 247 247 246 246 246 245 244 244 243 243 242 242 241 241 241 241 240 240 239 239 239 238 238 238 237 237 237 238 239 240 241 242 243 244 245 246 246 246 245 245 245 244 244 244 243 243 243 243 243 244 244 244 243 243 242 241 240 239 239 238 237 237 237 237 238 238 239 240 241 241 241 241 240 240 239 239 238 238 238 239 240 241 241 242 242 241 241 241 240 240 240 240 240 239 239 239 239 239 239 239 239 239 239 238 238 238 238 239 239 239 239 238 238 238 237 236 234 232 229 226 222 217 216 216 218 222 228 232 234 234 232 229 226 223 221 219 218 216 215 214 213 212 212 211 210 210 210 210 210 210 210 210 210 210 210 210 210 210 210
 247 247 247 247 246 246 245 245 245 245 245 245 246 247 247 248 248 248 249 249 249 249 249 249 249 249 249 249 249 249 249 249 249 249 249 250 250 250 250 250 249 249 249 249 250 250 250 250 250 250 249 249 248 248 248 247 247 247 247 246 246 245 245 244 244 243 243 242 242 241 241 241 240 240 239 239 239 238 238 238 238 238 238 238 239 240 242 243 244 245 245 246 246 246 246 245 245 244 244 244 243 243 243 244 244 244 244 243 243 243 242 241 240 239 238 238 237 237 237 237 238 239 240 241 241 242 242 241 241 240 240 239 239 239 239 240 240 241 241 242 242 241 241 241 240 240 240 240 240 240 239 239 239 239 239 239 239 239 239 239 238 238 238 238 239 239 239 238 238 237 236 234 232 229 226 223 218 216 216 217 219 224 229 232 234 233 232 229 226 223 221 220 218 216 215 214 213 212 212 211 211 210 210 210 210 210 210 210 210 210 210 210 210 210 210
 247 247 246 246 245 245 245 244 244 244 245 245 246 246 247 247 248 248 248 249 249 249 249 249 249 249 249 249 249 249 250 250 250 250 250 250 250 250 250 250 250 250 250 250 250 250 251 251 251 250 250 249 249 248 248 248 247 247 247 246 246 246 245 244 244 243 243 242 242 242 241 241 240 240 240 239 239 239 239 239 239 239 239 239 240 241 242 244 245 245 246 246 246 246 246 246 245 245 244 244 244 244 244 244 244 244 244 243 243 243 242 241 240 239 238 238 237 237 237 238 238 239 241 241 242 242 242 242 241 241 240 240 240 240 240 240 241 241 241 242 242 241 241 241 240 240 240 240 240 240 240 239 239 239 239 239 239 239 239 239 238 238 238 238 239 239 239 238 237 235 234 232 229 226 223 219 216 216 216 218 221 225 229 232 233 233 232 229 226 224 222 220 218 216 215 214 213 212 212 211 211 210 210 210 210 210 210 210 210 210 210 210 210 210 210
 247 246 246 245 245 244 244 244 244 244 244 245 245 246 247 247 248 248 248 248 249 249 249 249 249 249 249 249 249 250 250 250 250 250 250 250 250 251 251 251 250 250 250 250 251 251 251 251 251 251 250 250 249 249 248 248 248 247 247 247 246 246 245 244 244 243 243 242 242 242 241 241 240 240 240 239 239 239 239 239 239 239 240 240 241 242 243 244 245 246 246 246 246 246 246 246 245 245 244 244 244 244 244 244 244 244 243 243 243 242 242 241 240 239 238 238 237 237 237 238 239 240 241 242 242 243 243 242 242 241 241 241 241 241 241 241 241 241 242 241 241 241 241 241 241 240 240 240 240 240 240 239 239 239 239 239 239 239 239 239 238 238 238 239 239 239 238 237 236 234 231 229 226 223 220 216 215 216 217 220 223 227 230 233 234 233 232 230 227 224 222 220 218 216 215 214 213 212 212 211 211 210 210 210 210 210 210 210 210 210 210 210 210 210 210
 246 245 245 244 244 243 243 243 243 243 244 244 245 246 246 247 247 248 248 248 248 249 249 249 249 249 249 249 250 250 250 250 250 250 251 251 251 251 251 251 251 251 251 251 251 251 252 252 252 251 251 250 250 249 249 248 248 247 247 247 246 246 245 245 244 243 243 242 242 242 241 241 240 240 240 240 239 240 240 240 240 240 240 241 242 243 244 245 246 246 247 247 246 246 246 246 245 245 245 244 244 244 244 244 244 243 243 243 242 242 242 241 240 239 238 238 237 237 238 239 240 241 242 242 243 243 243 243 242 242 242 241 241 241 241 241 242 242 242 241 241 241 241 241 241 240 240 240 240 240 240 239 239 239 239 239 239 239 239 239 238 238 238 239 239 239 238 237 236 233 230 227 224 220 217 215 215 216 219 222 225 229 231 233 234 233 232 230 227 225 223 221 218 216 214 213 213 212 212 211 211 211 210 210 210 210 210 210 210 210 210 210 210 210 210
 245 245 244 243 243 242 242 242 243 243 243 244 245 246 246 247 247 247 248 248 248 249 249 249 250 250 250 250 250 250 251 251 251 251 251 252 252 252 252 252 252 252 252 252 252 252 252 252 252 252 251 250 250 249 249 248 248 247 247 247 246 246 245 245 244 243 243 242 242 241 241 241 240 240 240 240 240 240 240 240 241 241 241 242 243 243 244 245 246 246 247 247 246 246 246 245 245 245 245 244 244 244 244 244 243 243 243 243 242 242 241 241 240 239 238 238 238 238 238 239 241 242 242 243 243 243 243 243 243 242 242 242 242 242 242 242 242 242 242 241 241 241 241 241 241 240 240 240 240 240 239 239 239 239 239 239 239 239 239 238 238 238 239 239 239 239 238 237 236 233 230 227 223 219 216 215 216 218 221 224 227 230 232 234 234 234 233 230 228 225 223 221 219 216 214 213 212 212 212 211 211 211 210 210 210 210 210 210 210 210 210 210 210 210 210
 245 244 243 242 242 242 242 242 242 242 243 244 245 246 246 246 247 247 247 248 248 249 249 249 250 250 250 250 251 251 251 251 251 252 252 252 253 253 253 253 253 253 253 252 252 253 253 252 252 252 251 251 250 250 249 249 248 248 247 247 246 246 245 244 244 243 243 242 242 241 241 241 240 240 240 240 240 240 241 241 242 242 243 243 244 244 245 246 246 247 247 247 246 246 246 246 245 245 245 245 244 244 244 244 243 243 243 242 242 241 241 240 239 238 238 237 238 238 239 240 241 242 243 243 243 243 243 243 243 243 243 242 242 242 242 242 242 242 242 241 241 241 241 241 241 240 240 240 240 240 239 239 239 239 239 239 239 239 238 238 238 238 238 238 238 238 238 237 235 233 230 227 223 218 215 216 217 219 222 226 229 232 234 235 235 235 233 231 229 226 224 222 220 217 214 213 212 212 212 211 211 211 211 210 210 210 210 210 210 210 210 210 210 210 210
 244 243 242 242 241 241 241 241 241 242 243 244 245 245 246 246 246 247 247 247 248 249 249 250 250 250 251 251 251 251 251 252 252 252 253 253 254 254 254 254 254 254 253 253 253 253 253 253 252 252 251 251 250 250 249 249 248 248 247 247 246 245 245 244 244 243 243 242 242 241 241 241 241 240 240 241 241 241 241 242 242 243 244 245 245 245 246 246 247 247 247 247 246 246 246 246 245 245 245 245 244 244 244 244 243 243 242 242 241 241 240 240 239 238 238 237 238 238 239 240 241 242 243 243 244 244 244 243 243 243 243 243 243 242 242 242 242 242 242 241 241 241 241 241 240 240 240 240 240 239 239 239 239 239 239 239 238 238 238 238 238 238 238 238 238 237 237 236 234 232 229 226 222 218 216 216 218 221 224 228 231 233 235 236 236 236 234 232 230 227 225 223 221 218 215 213 212 212 211 211 211 211 211 210 210 210 210 210 210 210 210 210 210 210 210
 243 242 242 241 241 240 240 240 241 242 242 243 244 245 245 246 246 246 247 247 248 249 249 250 250 251 251 251 251 252 252 252 252 253 253 254 254 255 255 255 255 254 254 254 254 254 253 253 252 252 251 251 250 250 249 249 248 248 247 247 246 245 245 244 244 243 243 242 242 241 241 241 241 241 241 241 241 242 242 243 243 244 245 246 246 246 247 247 247 247 247 247 246 246 246 246 246 245 245 245 245 244 244 244 243 243 242 242 241 241 240 239 239 238 238 237 237 238 239 241 242 243 243 243 244 244 244 243 243 243 243 243 243 243 242 242 242 242 242 241 241 241 241 241 240 240 240 240 239 239 239 239 239 239 239 238 238 238 238 238 238 237 237 237 237 236 235 234 232 230 227 224 221 218 216 217 219 222 226 229 232 234 235 236 236 236 235 233 231 229 226 224 222 219 215 213 212 212 211 211 211 211 211 210 210 210 210 210 210 210 210 210 210 210 210
 242 242 241 240 240 240 240 240 240 241 242 243 244 245 245 245 245 246 247 247 248 249 249 250 250 251 251 251 252 252 252 253 253 253 254 254 255 256 256 256 256 255 255 255 254 254 253 253 252 252 251 251 250 250 249 249 248 248 247 247 246 245 245 244 244 243 243 242 242 241 241 241 241 241 241 241 242 242 243 244 244 245 246 246 247 247 247 247 247 247 247 247 246 246 246 246 246 245 245 245 245 244 244 244 243 243 242 242 241 240 240 239 238 238 237 237 238 238 240 241 242 243 243 244 244 244 244 244 243 243 243 243 243 243 242 242 242 242 242 242 241 241 241 240 240 240 240 240 239 239 239 239 239 239 238 238 238 238 238 237 237 236 236 235 235 234 233 231 229 227 225 222 219 218 216 218 220 223 227 230 232 234 236 236 237 236 236 234 232 230 228 226 224 220 216 214 212 212 211 211 211 211 210 210 210 210 210 210 210 210 210 211 210 210 210
 242 241 240 240 240 240 240 240 240 241 242 243 244 244 245 245 245 246 246 247 248 249 249 250 250 251 251 252 252 252 252 253 253 254 254 255 256 256 256 256 256 256 256 255 255 254 254 253 252 252 251 251 250 250 249 249 249 248 248 247 246 246 245 244 244 243 243 242 242 241 241 241 241 241 241 242 242 243 243 244 245 246 247 247 247 248 248 247 247 247 247 247 246 246 246 246 246 246 245 245 245 244 244 244 243 243 242 242 241 241 240 239 238 238 237 237 238 239 240 241 242 243 243 244 244 244 244 244 243 243 243 243 243 243 243 242 242 242 242 242 241 241 241 241 240 240 240 240 239 239 239 239 239 239 238 238 238 237 237 236 235 234 233 233 232 231 229 228 226 224 222 220 219 218 217 218 220 224 227 230 233 234 236 237 237 237 236 235 233 232 230 228 225 222 218 214 213 212 211 211 211 211 210 210 210 210 210 210 210 211 211 211 211 210 210
 241 240 240 240 239 239 239 240 240 241 242 243 243 244 244 245 245 246 246 247 248 249 249 250 251 251 252 252 252 252 253 253 254 254 255 255 256 256 256 256 256 256 256 256 255 254 254 253 252 252 251 251 250 250 249 249 249 248 248 247 247 246 245 244 244 243 243 242 242 241 241 241 241 241 242 242 243 243 244 245 246 247 247 248 248 248 248 248 247 247 247 247 247 246 246 246 246 246 245 245 245 244 244 244 243 243 242 242 241 241 240 239 238 238 238 238 238 239 241 242 242 243 243 244 244 244 244 244 243 243 243 243 243 243 243 242 242 242 242 242 241 241 241 241 240 240 240 240 239 239 239 239 239 238 238 238 237 237 236 235 233 231 231 230 229 228 226 225 223 222 220 220 219 219 218 219 221 224 228 230 233 234 236 237 237 237 236 236 234 233 231 229 227 224 219 215 213 212 211 211 211 211 211 211 210 210 211 211 211 211 211 211 211 211 211
 240 240 240 239 239 239 240 240 240 241 242 242 243 244 244 245 245 246 247 247 248 249 249 250 251 251 252 252 252 253 253 253 254 254 255 256 256 256 256 256 256 256 256 256 255 254 254 253 252 252 251 251 250 250 249 249 249 248 248 248 247 246 246 245 244 243 243 242 242 242 241 241 241 242 242 242 243 244 245 246 246 247 247 248 248 248 248 248 248 247 247 247 247 246 246 246 246 246 245 245 245 244 244 244 243 243 242 242 242 241 240 239 238 238 238 238 239 240 241 242 242 243 243 244 244 244 244 244 243 243 243 243 243 243 243 242 242 242 242 242 241 241 241 241 241 240 240 240 239 239 239 238 238 238 238 238 237 236 235 233 231 230 230 230 229 226 225 223 222 220 220 220 220 220 221 221 222 224 227 230 232 234 236 237 237 237 237 236 235 234 232 231 228 225 220 216 213 212 212 211 211 211 211 211 211 211 211 211 211 211 211 211 211 211 211
 240 239 239 239 239 239 240 240 241 241 242 242 243 244 244 245 246 246 247 247 248 249 249 250 251 251 252 252 252 253 253 253 254 254 255 256 256 256 256 256 256 256 256 256 255 254 253 253 252 251 251 250 250 250 249 249 249 248 248 248 247 247 246 245 244 243 243 242 242 242 242 242 242 242 243 243 244 244 245 246 247 247 248 248 248 248 248 248 248 247 247 247 247 246 246 246 246 246 245 245 245 244 244 244 243 243 243 242 242 241 241 239 238 238 238 239 240 241 242 242 243 243 243 244 244 244 244 244 244 243 243 243 243 243 243 242 242 242 242 242 242 241 241 241 241 240 240 240 240 239 239 238 238 238 238 237 236 235 235 234 232 232 232 231 231 229 227 224 222 220 219 220 221 223 224 224 224 225 227 229 232 234 235 237 237 237 237 236 235 234 233 231 229 225 220 216 213 212 211 211 211 211 211 211 211 211 211 211 211 212 212 211 211 211 211
 239 239 239 239 239 239 240 240 241 241 242 242 243 244 244 245 246 246 247 248 248 249 249 250 251 251 252 252 252 252 253 253 253 254 255 255 256 256 256 256 256 256 256 256 255 254 253 252 251 251 250 250 250 250 249 249 249 249 248 248 247 247 246 245 244 243 243 243 242 242 242 242 242 243 243 244 244 245 245 246 247 247 248 248 248 248 248 248 248 247 247 247 247 246 246 246 246 246 245 245 245 245 244 244 243 243 243 242 242 241 241 239 239 239 239 240 241 241 242 242 243 243 243 244 244 244 244 244 244 243 243 243 243 243 243 243 242 242 242 242 242 241 241 241 241 240 240 240 240 240 239 238 238 238 237 237 236 236 236 235 235 234 234 233 232 231 228 225 222 220 220 222 224 227 228 227 226 226 227 229 231 233 235 237 237 237 237 236 236 235 234 232 230 226 221 216 213 212 211 211 211 211 211 211 211 211 211 211 212 212 212 212 212 211 211
 239 239 239 239 239 239 240 240 240 241 242 242 243 244 244 245 246 246 247 248 248 249 249 250 251 251 251 252 252 252 252 253 253 253 254 255 256 256 256 256 256 256 256 255 255 254 253 252 251 250 250 250 250 250 249 249 249 249 248 248 247 247 246 245 244 244 243 243 243 243 243 243 243 243 244 244 245 245 246 246 247 247 248 248 248 248 248 248 248 247 247 247 246 246 246 246 246 245 245 245 245 245 244 244 244 243 243 242 242 241 241 240 240 240 240 241 241 242 242 243 243 243 244 244 244 244 244 244 244 243 243 243 243 243 243 243 242 242 242 242 242 241 241 241 241 241 241 241 240 240 239 239 238 238 237 237 237 236 236 237 236 236 235 234 232 230 227 224 221 220 221 224 227 230 231 230 229 227 227 229 231 233 235 236 237 237 237 237 236 235 234 233 231 227 221 216 213 212 212 211 211 211 211 211 211 211 211 212 212 212 212 212 212 212 211
 239 239 239 239 239 239 240 240 240 241 242 242 243 244 244 245 246 246 247 248 248 249 249 250 250 251 251 251 251 252 252 252 252 253 253 254 254 255 255 255 255 255 255 255 255 254 253 252 251 250 250 250 249 249 249 249 249 249 249 248 247 247 246 245 245 244 244 243 243 243 243 243 243 244 244 244 245 245 246 246 247 247 248 248 248 248 248 248 247 247 247 247 246 246 246 245 245 245 245 245 245 245 244 244 244 243 243 242 242 241 240 240 241 241 241 242 242 242 243 243 243 243 244 244 244 244 244 244 244 243 243 243 243 243 243 243 242 242 242 242 242 241 241 241 241 241 241 241 241 240 240 239 238 238 238 237 237 237 237 237 237 237 235 234 231 229 226 223 221 221 223 227 230 232 232 232 230 229 228 229 231 232 234 236 237 237 237 237 236 236 235 233 231 227 222 217 213 212 212 211 211 211 211 211 211 211 211 212 212 213 213 213 212 212 212
 239 239 239 239 239 239 239 240 240 241 241 242 243 244 244 245 246 246 247 247 248 248 249 249 250 250 250 251 251 251 251 252 252 252 252 252 253 253 254 254 255 255 255 255 255 254 253 252 251 250 250 249 249 249 249 249 249 249 249 248 248 247 246 245 245 245 244 244 244 244 244 244 244 244 245 245 245 246 246 247 247 247 248 248 248 248 248 247 247 247 247 247 246 246 245 245 245 245 245 245 245 245 244 244 244 243 243 242 242 241 241 241 241 242 242 242 243 243 243 243 243 244 244 244 244 244 244 244 244 244 243 243 243 243 243 243 242 242 242 242 242 242 241 241 241 241 241 241 241 241 240 239 239 238 238 238 238 238 238 238 237 237 235 233 230 227 225 222 222 223 226 230 233 234 234 233 231 230 229 229 230 232 234 236 237 237 237 237 236 236 235 233 231 228 223 217 214 212 212 212 211 211 211 211 211 211 211 212 213 213 213 213 213 212 212
 238 239 239 239 239 239 239 240 240 240 241 242 243 243 244 245 246 246 247 247 248 248 248 249 249 250 250 250 250 250 251 251 251 251 251 251 251 252 253 254 254 255 255 255 255 254 254 253 251 250 250 250 249 250 250 250 249 249 249 248 248 247 247 246 245 245 245 245 245 245 245 245 245 245 245 245 245 246 246 247 247 247 247 248 248 248 247 247 247 247 247 246 246 246 245 245 245 245 245 245 245 245 245 244 244 244 243 243 242 242 242 242 242 242 243 243 243 243 243 244 244 244 244 244 244 244 244 244 244 244 243 243 243 243 243 243 242 242 242 242 242 242 241 241 241 241 241 241 241 241 240 240 239 239 239 238 238 238 238 238 237 236 234 231 228 226 224 223 224 226 229 233 235 235 235 234 232 231 230 229 230 231 233 235 237 237 237 237 237 236 235 233 231 229 224 218 214 213 212 212 211 211 211 211 211 211 212 212 213 213 213 213 213 212 212
 238 238 239 239 239 239 239 240 240 240 241 242 242 243 244 245 245 246 246 247 247 248 248 248 249 249 249 249 250 250 250 250 250 250 250 250 250 251 252 253 254 255 255 255 255 254 254 253 252 251 250 250 250 250 250 250 250 250 249 249 248 248 247 247 246 246 246 246 246 246 246 246 245 245 245 245 246 246 246 247 247 247 247 247 247 247 247 247 247 247 246 246 246 246 245 245 245 245 245 245 245 245 245 244 244 244 244 243 243 243 243 243 243 243 243 243 244 244 244 244 244 244 244 244 244 244 244 244 244 244 243 243 243 243 243 243 242 242 242 242 242 241 241 241 241 241 241 241 241 241 240 240 239 239 239 239 239 238 238 237 236 234 232 229 226 225 224 225 227 229 232 235 236 236 236 235 234 232 231 230 230 231 233 235 236 237 237 237 237 236 235 234 232 229 225 219 214 213 212 212 212 211 211 211 211 211 212 213 213 214 214 214 213 213 212
 238 238 239 239 239 239 239 240 240 240 241 241 242 243 243 244 245 245 246 246 247 247 247 248 248 248 248 249 249 249 249 249 249 249 249 249 250 250 251 253 254 254 255 255 255 254 254 253 252 251 251 250 250 250 250 250 250 250 249 249 249 248 248 248 247 247 247 247 247 247 247 247 246 246 246 246 246 246 246 247 247 247 247 247 247 247 247 247 247 247 246 246 246 246 245 245 245 245 245 245 245 245 245 245 244 244 244 244 243 243 243 243 244 244 244 244 244 244 244 244 244 244 244 244 244 244 244 244 244 244 243 243 243 243 243 243 242 242 242 242 241 241 241 241 241 241 241 241 241 240 240 240 239 239 239 239 239 238 238 236 235 232 229 226 225 224 225 227 230 232 234 236 237 237 236 236 235 233 232 231 230 231 233 234 236 237 237 237 237 236 235 234 232 230 226 220 214 213 212 212 212 212 211 211 211 211 212 213 214 214 214 214 213 213 212
 238 238 239 239 239 239 239 239 240 240 240 241 242 242 243 244 244 245 245 246 246 246 247 247 247 248 248 248 248 248 248 248 248 248 248 249 249 250 251 252 253 254 254 255 255 255 254 254 253 252 251 251 251 251 251 251 251 250 250 249 249 249 249 249 248 248 248 248 248 248 248 248 247 247 246 246 246 246 247 247 247 247 247 247 247 247 247 247 247 247 246 246 246 245 245 245 245 245 245 245 245 245 245 245 245 244 244 244 244 244 244 244 244 244 244 245 244 244 244 244 244 244 244 244 244 244 244 244 244 244 243 243 243 243 243 243 242 242 242 242 241 241 241 241 241 241 241 240 240 240 240 240 239 239 239 238 238 238 237 235 233 230 227 225 224 225 227 229 232 234 236 237 238 238 237 237 236 234 233 232 231 232 233 234 236 237 237 237 237 236 236 234 232 230 226 221 215 213 212 212 212 212 212 211 211 211 212 213 214 214 214 214 213 213 213
 238 238 238 239 239 239 239 239 239 240 240 240 241 242 242 243 244 244 245 245 245 246 246 246 247 247 247 247 247 247 247 247 247 247 248 248 249 250 251 252 253 253 254 254 255 255 254 254 254 253 252 252 252 252 252 251 251 251 250 250 250 250 250 250 249 249 249 249 250 250 249 248 248 247 247 247 247 247 247 247 247 247 247 247 247 247 247 247 247 246 246 246 246 245 245 245 245 245 245 245 245 245 245 245 245 245 245 245 245 245 245 245 245 245 245 245 245 245 245 245 244 244 244 244 244 244 244 244 244 244 243 243 243 243 243 243 242 242 242 241 241 241 241 241 240 240 240 240 240 240 239 239 239 239 238 238 238 238 236 234 231 228 226 225 225 227 229 231 233 235 236 237 238 238 238 237 236 236 234 233 232 232 233 234 235 236 237 237 237 237 236 234 232 230 226 220 215 213 213 212 212 212 212 211 211 212 212 213 214 214 214 214 213 213 213
